;FLAVOR:Marlin
;TIME:3911
;Filament used: 5.61859m
;Layer height: 0.25
;MINX:6.617
;MINY:7.452
;MINZ:0.36
;MAXX:71.829
;MAXY:91.108
;MAXZ:17.935
;Generated with Cura_SteamEngine 5.2.1
M140 S110
M105
M190 S110
M104 S235
M105
M109 S235
M82 ;absolute extrusion mode
G21 ;metric values
 G90 ;absolute positioning
 M82 ;set extruder to absolute mode
 M107 ;start with the fan off
 G28 X0 Y0 ;move X/Y to min endstops
 G28 Z0 ;move Z to min endstops
 G1 Z15.0 F80 ;move the platform down 15mm
 G92 E0 ;zero the extruded length
 G1 F200 E6 ;extrude 6 mm of feed stock
 G92 E0 ;zero the extruded length again
 G1 F80 
 ;Put printing message on LCD screen
 M117 Printing...
G92 E0
G92 E0
G1 F1500 E-6.5
;LAYER_COUNT:66
;LAYER:-6
M107
G0 F4800 X9.025 Y14.018 Z0.36
;TYPE:SUPPORT-INTERFACE
G1 F1500 E0
G1 F1575 X8.446 Y14.982 E0.13465
G1 X7.994 Y15.862 E0.2531
G1 X7.576 Y16.847 E0.38122
G1 X7.236 Y17.851 E0.50814
G1 X6.952 Y18.955 E0.64464
G1 X6.773 Y19.92 E0.76215
G1 X6.664 Y20.91 E0.88141
G1 X6.617 Y22.061 E1.01934
G1 X6.617 Y74.091 E7.24923
G1 X6.676 Y75.481 E7.41581
G1 X6.813 Y76.555 E7.54545
G1 X7.047 Y77.679 E7.68292
G1 X7.312 Y78.622 E7.80021
G1 X7.713 Y79.711 E7.93916
G1 X8.071 Y80.513 E8.04432
G1 X8.606 Y81.523 E8.18117
G1 X9.233 Y82.499 E8.32007
G1 X9.827 Y83.299 E8.43938
G1 X10.524 Y84.108 E8.56724
G1 X11.271 Y84.855 E8.69373
G1 X12.08 Y85.554 E8.82175
G1 X13.012 Y86.239 E8.96024
G1 X13.825 Y86.754 E9.07547
G1 X14.771 Y87.265 E9.20421
G1 X15.764 Y87.711 E9.33455
G1 X16.827 Y88.086 E9.46952
G1 X17.854 Y88.369 E9.59707
G1 X18.869 Y88.576 E9.72111
G1 X27.817 Y90.067 E10.80728
G1 X28.308 Y90.142 E10.86675
G1 X32.033 Y90.796 E11.3196
G1 X32.68 Y90.893 E11.39793
G1 X33.767 Y90.993 E11.52863
G1 X35.646 Y91.092 E11.75393
G1 X36.338 Y91.108 E11.83681
G1 X37.302 Y91.08 E11.95228
G1 X39.705 Y90.924 E12.24062
G1 X40.406 Y90.857 E12.32494
G1 X41.431 Y90.707 E12.44897
G1 X43.4 Y90.347 E12.68864
G1 X44.212 Y90.174 E12.78805
G1 X45.163 Y89.914 E12.9061
G1 X47.12 Y89.3 E13.15168
G1 X47.604 Y89.138 E13.2128
G1 X48.586 Y88.749 E13.33927
G1 X50.575 Y87.874 E13.59945
G1 X51.081 Y87.639 E13.66625
G1 X52.056 Y87.121 E13.79845
G1 X53.853 Y86.071 E14.04765
G1 X54.504 Y85.663 E14.13965
G1 X55.396 Y85.027 E14.27082
G1 X57.302 Y83.567 E14.5583
G1 X58.208 Y82.762 E14.70341
G1 X59.753 Y81.284 E14.95942
G1 X60.238 Y80.792 E15.04214
G1 X60.864 Y80.089 E15.15485
G1 X62.299 Y78.356 E15.42426
G1 X62.731 Y77.801 E15.50847
G1 X63.299 Y76.986 E15.62742
G1 X64.401 Y75.271 E15.87151
G1 X64.731 Y74.73 E15.94739
G1 X65.246 Y73.767 E16.07814
G1 X66.166 Y71.866 E16.33102
G1 X66.467 Y71.208 E16.41766
G1 X66.816 Y70.31 E16.53302
G1 X67.56 Y68.183 E16.80283
G1 X67.732 Y67.648 E16.87011
G1 X68.042 Y66.468 E17.0162
G1 X68.454 Y64.594 E17.24594
G1 X68.682 Y63.232 E17.41129
G1 X68.935 Y61.034 E17.67621
G1 X71.767 Y29.127 E21.51166
G1 X71.829 Y27.598 E21.69489
G1 X71.819 Y26.598 E21.81463
G1 X71.815 Y26.268 E21.85415
G1 X71.766 Y25.276 E21.97307
G1 X71.634 Y24.156 E22.1081
G1 X71.435 Y23.15 E22.23089
G1 X71.194 Y22.129 E22.3565
G1 X70.97 Y21.302 E22.45909
G1 X70.675 Y20.419 E22.57057
G1 X70.263 Y19.425 E22.6994
G1 X69.805 Y18.433 E22.83023
G1 X69.413 Y17.649 E22.93518
G1 X68.89 Y16.746 E23.06013
G1 X68.278 Y15.848 E23.19025
G1 X67.574 Y14.902 E23.33144
G1 X67.043 Y14.239 E23.43315
G1 X66.32 Y13.449 E23.56138
G1 X65.499 Y12.675 E23.69648
G1 X64.701 Y11.98 E23.82319
G1 X64.075 Y11.47 E23.91987
G1 X63.141 Y10.799 E24.05757
G1 X62.256 Y10.263 E24.18146
G1 X60.931 Y9.522 E24.36323
G1 X59.916 Y9.003 E24.49973
G1 X58.999 Y8.614 E24.619
G1 X57.929 Y8.249 E24.75437
G1 X56.89 Y7.981 E24.88285
G1 X55.78 Y7.78 E25.01791
G1 X54.613 Y7.613 E25.15907
G1 X53.518 Y7.493 E25.29097
G1 X52.456 Y7.454 E25.41821
G1 X49.676 Y7.452 E25.75108
G1 X49.082 Y7.459 E25.82221
G1 X48.915 Y7.453 E25.84222
G1 X42.378 Y7.452 E26.62493
G1 X41.223 Y7.471 E26.76325
G1 X40.714 Y7.453 E26.82423
G1 X33.042 Y7.453 E27.74285
G1 X31.717 Y7.552 E27.90194
G1 X30.703 Y7.702 E28.02468
G1 X29.896 Y7.713 E28.12132
G1 X29.226 Y7.636 E28.20207
G1 X28.994 Y7.6 E28.23018
G1 X28.094 Y7.5 E28.3386
G1 X26.961 Y7.453 E28.47438
G1 X20.87 Y7.453 E29.2037
G1 X19.613 Y7.541 E29.35457
G1 X18.638 Y7.685 E29.47258
G1 X17.513 Y7.931 E29.61047
G1 X16.505 Y8.234 E29.7365
G1 X15.428 Y8.652 E29.87483
G1 X14.607 Y9.038 E29.98345
G1 X13.677 Y9.553 E30.11074
G1 X12.728 Y10.176 E30.24667
G1 X11.863 Y10.843 E30.37746
G1 X11.02 Y11.608 E30.51376
G1 X10.393 Y12.257 E30.62181
G1 X9.663 Y13.126 E30.7577
G1 X9.025 Y14.018 E30.88902
G0 F4800 X9.506 Y14.031
G1 F1575 X66.218 Y70.743 E40.49223
G0 F4800 X65.511 Y72.299
G1 F1575 X8.657 Y15.445 E50.11948
G0 F4800 X7.946 Y16.997
G1 F1575 X64.765 Y73.816 E59.74081
G0 F4800 X63.938 Y75.251
G1 F1575 X7.421 Y18.734 E69.31101
G0 F4800 X7.092 Y20.668
G1 F1575 X63.053 Y76.629 E78.78705
G0 F4800 X62.109 Y77.948
G1 F1575 X7.016 Y22.855 E88.11611
G0 F4800 X7.016 Y25.118
G1 F1575 X61.088 Y79.19 E97.27228
G0 F4800 X60.043 Y80.408
G1 F1575 X7.016 Y27.381 E106.2515
G0 F4800 X7.016 Y29.644
G1 F1575 X58.909 Y81.536 E115.03861
G0 F4800 X57.745 Y82.636
G1 F1575 X7.016 Y31.906 E123.62879
G0 F4800 X7.016 Y34.169
G1 F1575 X56.512 Y83.665 E132.01009
G0 F4800 X55.232 Y84.647
G1 F1575 X7.016 Y36.432 E140.17456
G0 F4800 X7.016 Y38.695
G1 F1575 X53.893 Y85.571 E148.1123
G0 F4800 X52.472 Y86.413
G1 F1575 X7.016 Y40.957 E155.8095
G0 F4800 X7.016 Y43.22
G1 F1575 X51.015 Y87.219 E163.25998
G0 F4800 X49.459 Y87.926
G1 F1575 X7.016 Y45.483 E170.44698
G0 F4800 X7.016 Y47.745
G1 F1575 X47.871 Y88.6 E177.36508
G0 F4800 X46.181 Y89.173
G1 F1575 X7.016 Y50.008 E183.997
G0 F4800 X7.016 Y52.271
G1 F1575 X44.44 Y89.695 E190.33412
G0 F4800 X42.573 Y90.091
G1 F1575 X7.016 Y54.534 E196.35509
G0 F4800 X7.016 Y56.796
G1 F1575 X40.637 Y90.417 E202.04824
G0 F4800 X38.553 Y90.596
G1 F1575 X7.016 Y59.059 E207.38849
G0 F4800 X7.016 Y61.322
G1 F1575 X36.399 Y90.705 E212.364
G0 F4800 X34.037 Y90.605
G1 F1575 X7.016 Y63.585 E216.93946
G0 F4800 X7.016 Y65.847
G1 F1575 X31.456 Y90.287 E221.07796
G0 F4800 X28.711 Y89.805
G1 F1575 X7.016 Y68.11 E224.75164
G0 F4800 X7.016 Y70.373
G1 F1575 X26.001 Y89.357 E227.96634
G0 F4800 X23.285 Y88.905
G1 F1575 X7.016 Y72.636 E230.72122
G0 F4800 X7.052 Y74.934
G1 F1575 X20.57 Y88.452 E233.01026
G0 F4800 X17.79 Y87.935
G1 F1575 X7.434 Y77.579 E234.76387
G0 F4800 X9.022 Y81.43
G1 F1575 X13.953 Y86.361 E235.59885
G0 F4800 X66.821 Y69.084
G1 F1575 X10.494 Y12.756 E245.13696
G0 F4800 X11.611 Y11.611
G1 F1575 X67.387 Y67.387 E254.58167
G0 F4800 X67.829 Y65.567
G1 F1575 X12.85 Y10.587 E263.89151
G0 F4800 X14.229 Y9.704
G1 F1575 X68.201 Y63.676 E273.03075
G0 F4800 X68.458 Y61.67
G1 F1575 X15.746 Y8.958 E281.95663
G0 F4800 X17.426 Y8.375
G1 F1575 X68.659 Y59.608 E290.63207
G0 F4800 X68.843 Y57.53
G1 F1575 X19.304 Y7.991 E299.02065
G0 F4800 X21.429 Y7.853
G1 F1575 X69.028 Y55.452 E307.08073
G0 F4800 X69.213 Y53.373
G1 F1575 X23.692 Y7.853 E314.78885
G0 F4800 X25.955 Y7.853
G1 F1575 X69.397 Y51.295 E322.14502
G0 F4800 X69.582 Y49.217
G1 F1575 X28.289 Y7.924 E329.13728
G0 F4800 X30.726 Y8.099
G1 F1575 X69.766 Y47.139 E335.74804
G0 F4800 X69.951 Y45.061
G1 F1575 X32.765 Y7.875 E342.04486
G0 F4800 X35.006 Y7.853
G1 F1575 X70.135 Y42.982 E347.99335
G0 F4800 X70.32 Y40.904
G1 F1575 X37.268 Y7.853 E353.59006
G0 F4800 X39.531 Y7.853
G1 F1575 X70.504 Y38.826 E358.83481
G0 F4800 X70.689 Y36.748
G1 F1575 X41.802 Y7.861 E363.72633
G0 F4800 X44.056 Y7.853
G1 F1575 X70.873 Y34.669 E368.26725
G0 F4800 X71.057 Y32.591
G1 F1575 X46.319 Y7.853 E372.45621
G0 F4800 X48.582 Y7.853
G1 F1575 X71.242 Y30.513 E376.29329
G0 F4800 X71.395 Y28.403
G1 F1575 X50.845 Y7.853 E379.77309
G0 F4800 X53.134 Y7.879
G1 F1575 X71.408 Y26.153 E382.86748
G0 F4800 X71.115 Y23.598
G1 F1575 X55.688 Y8.171 E385.47978
G0 F4800 X58.722 Y8.942
G1 F1575 X70.272 Y20.491 E387.43549
G0 F4800 X67.451 Y15.408
G1 F1575 X63.831 Y11.788 E388.04847
G0 F600 X63.831 Y11.788 Z0.735
G0 F4800 X14.48 Y9.56
;TIME_ELAPSED:129.638184
;LAYER:-5
;TYPE:SUPPORT
G1 F1575 X8.72 Y15.32 E389.06447
G0 F4800 X13.745 Y9.977
G1 F1575 X12.939 Y10.512 E389.18513
G1 X12.074 Y11.187 E389.32198
G1 X11.293 Y11.898 E389.45371
G1 X10.698 Y12.514 E389.56053
G1 X10.031 Y13.307 E389.68977
G1 X9.37 Y14.221 E389.83046
G1 X8.807 Y15.152 E389.96616
G1 X8.355 Y16.032 E390.08955
G1 X7.928 Y17.05 E390.22724
G1 X7.684 Y17.771 E390.32217
G1 X16.932 Y8.523 E391.95341
G1 X17.708 Y8.295 E392.05429
G1 X18.553 Y8.106 E392.16229
G1 X18.801 Y8.068 E392.19358
G1 X7.202 Y19.667 E394.23951
G1 X7.034 Y21.25 E394.43806
G1 X20.397 Y7.887 E396.79514
G1 X20.901 Y7.852 E396.85815
G1 X21.846 Y7.852 E396.97602
G1 X7.015 Y22.682 E399.59195
G1 X7.015 Y24.096 E399.76831
G1 X23.26 Y7.852 E402.63365
G1 X24.674 Y7.852 E402.81002
G1 X7.015 Y25.51 E405.92477
G1 X7.015 Y26.925 E406.10126
G1 X26.088 Y7.852 E409.46552
G1 X26.937 Y7.853 E409.57141
G1 X27.48 Y7.874 E409.63919
G1 X7.015 Y28.339 E413.24898
G1 X7.015 Y29.753 E413.42534
G1 X28.781 Y7.987 E417.26461
G1 X30.051 Y8.132 E417.42404
G1 X7.015 Y31.167 E421.48724
G1 X7.015 Y32.582 E421.66373
G1 X31.645 Y7.952 E426.00817
G1 X33.165 Y7.846 E426.19822
G1 X7.015 Y33.996 E430.81078
G1 X7.015 Y35.41 E430.98714
G1 X34.573 Y7.852 E435.84805
G1 X35.988 Y7.852 E436.02454
G1 X7.015 Y36.824 E441.13496
G1 X7.015 Y38.238 E441.31132
G1 X37.402 Y7.852 E446.67115
G1 X38.816 Y7.852 E446.84751
G1 X7.015 Y39.653 E452.45684
G1 X7.015 Y41.067 E452.6332
G1 X40.243 Y7.839 E458.49424
G1 X41.614 Y7.882 E458.66532
G1 X7.015 Y42.481 E464.76819
G1 X7.015 Y43.895 E464.94455
G1 X43.059 Y7.851 E471.3023
G1 X44.474 Y7.851 E471.47878
G1 X7.015 Y45.309 E478.08603
G1 X7.015 Y46.724 E478.26252
G1 X45.888 Y7.851 E485.11927
G1 X47.302 Y7.851 E485.29563
G1 X7.015 Y48.138 E492.40179
G1 X7.015 Y49.552 E492.57816
G1 X48.706 Y7.861 E499.93197
G1 X50.131 Y7.851 E500.10971
G1 X7.015 Y50.966 E507.71478
G1 X7.015 Y52.381 E507.89127
G1 X51.544 Y7.852 E515.74568
G1 X52.433 Y7.853 E515.85656
G1 X52.94 Y7.87 E515.91983
G1 X7.015 Y53.795 E524.02047
G1 X7.015 Y55.209 E524.19683
G1 X54.258 Y7.966 E532.52995
G1 X55.495 Y8.143 E532.68581
G1 X7.015 Y56.623 E541.23713
G1 X7.015 Y58.037 E541.41349
G1 X56.708 Y8.345 E550.17867
G1 X57.831 Y8.636 E550.32337
G1 X7.015 Y59.452 E559.28672
G1 X7.015 Y60.866 E559.46309
G1 X58.882 Y8.999 E568.61183
G1 X59.877 Y9.419 E568.74653
G1 X7.015 Y62.28 E578.07069
G1 X7.015 Y63.694 E578.24706
G1 X60.802 Y9.907 E587.73446
G1 X61.711 Y10.413 E587.86422
G1 X7.015 Y65.108 E597.51188
G1 X7.015 Y66.523 E597.68837
G1 X62.601 Y10.937 E607.4931
G1 X62.922 Y11.132 E607.53994
G1 X63.445 Y11.507 E607.62021
G1 X7.015 Y67.937 E617.57381
G1 X7.015 Y69.351 E617.75017
G1 X64.249 Y12.117 E627.84559
G1 X65.007 Y12.774 E627.97071
G1 X7.015 Y70.765 E638.19974
G1 X7.015 Y72.18 E638.37623
G1 X65.742 Y13.453 E648.73499
G1 X66.016 Y13.712 E648.78202
G1 X66.439 Y14.17 E648.85978
G1 X6.994 Y73.615 E659.3452
G1 X7.054 Y74.969 E659.51424
G1 X67.097 Y14.926 E670.10513
G1 X67.699 Y15.739 E670.23131
G1 X7.164 Y76.274 E680.90899
G1 X7.407 Y77.445 E681.05815
G1 X68.286 Y16.566 E691.79651
G1 X68.505 Y16.884 E691.84467
G1 X68.828 Y17.438 E691.92465
G1 X7.713 Y78.553 E702.70463
G1 X8.088 Y79.592 E702.84241
G1 X69.327 Y18.354 E713.64417
G1 X69.775 Y19.32 E713.77698
G1 X8.543 Y80.551 E724.57752
G1 X9.033 Y81.475 E724.70797
G1 X70.211 Y20.298 E735.49897
G1 X70.564 Y21.359 E735.63844
G1 X9.603 Y82.32 E746.39126
G1 X10.202 Y83.135 E746.51741
G1 X70.865 Y22.472 E757.21767
G1 X71.135 Y23.617 E757.3644
G1 X10.866 Y83.885 E767.99507
G1 X11.577 Y84.589 E768.11986
G1 X71.315 Y24.851 E778.65696
G1 X71.356 Y25.183 E778.69868
G1 X71.407 Y26.172 E778.8222
G1 X12.339 Y85.241 E789.2412
G1 X13.147 Y85.847 E789.36718
G1 X71.428 Y27.566 E799.64727
G1 X71.37 Y29.038 E799.83101
G1 X14.01 Y86.398 E809.94866
G1 X14.927 Y86.895 E810.07875
G1 X71.236 Y30.587 E820.01092
G1 X71.098 Y32.138 E820.20513
G1 X15.904 Y87.333 E829.94081
G1 X16.947 Y87.704 E830.07888
G1 X70.96 Y33.69 E839.60624
G1 X70.823 Y35.242 E839.80057
G1 X18.065 Y88 E849.10648
G1 X19.236 Y88.243 E849.25564
G1 X70.685 Y36.795 E858.33056
G1 X70.548 Y38.346 E858.52477
G1 X20.459 Y88.435 E867.35989
G1 X21.671 Y88.637 E867.51314
G1 X70.41 Y39.898 E876.11014
G1 X70.272 Y41.45 E876.30448
G1 X22.883 Y88.839 E884.66335
G1 X24.096 Y89.041 E884.81673
G1 X70.135 Y43.001 E892.93757
G1 X69.997 Y44.554 E893.13203
G1 X25.308 Y89.243 E901.01466
G1 X26.52 Y89.445 E901.16791
G1 X69.859 Y46.106 E908.81241
G1 X69.722 Y47.657 E909.00661
G1 X27.732 Y89.647 E916.41317
G1 X28.366 Y89.745 E916.49318
G1 X28.946 Y89.847 E916.56663
G1 X69.584 Y49.209 E923.73471
G1 X69.446 Y50.761 E923.92905
G1 X30.148 Y90.059 E930.86076
G1 X31.351 Y90.27 E931.0131
G1 X69.309 Y52.313 E937.70836
G1 X69.171 Y53.865 E937.9027
G1 X32.552 Y90.484 E944.36187
G1 X33.852 Y90.598 E944.52464
G1 X69.033 Y55.417 E950.73016
G1 X68.896 Y56.968 E950.92436
G1 X35.188 Y90.676 E956.87007
G1 X36.56 Y90.719 E957.04127
G1 X68.758 Y58.52 E962.72072
G1 X68.62 Y60.072 E962.91506
G1 X38.063 Y90.629 E968.30496
G1 X39.576 Y90.531 E968.49407
G1 X68.466 Y61.641 E973.58993
G1 X68.274 Y63.247 E973.79166
G1 X41.174 Y90.347 E978.57179
G1 X42.903 Y90.032 E978.79099
G1 X67.959 Y64.976 E983.21058
G1 X67.559 Y66.79 E983.44227
G1 X44.737 Y89.612 E987.46781
G1 X45.049 Y89.528 E987.50811
G1 X46.778 Y88.985 E987.73414
G1 X66.895 Y68.868 E991.28255
G1 X66.445 Y70.159 E991.45307
G1 X66.072 Y71.105 E991.57991
G1 X49.083 Y88.095 E994.57666
G1 X50.41 Y87.509 E994.75759
G1 X50.921 Y87.271 E994.8279
G1 X51.78 Y86.812 E994.94937
G1 X64.758 Y73.833 E997.23863
G1 X64.45 Y74.415 E997.32076
G1 X64.068 Y75.05 E997.41319
G1 X62.974 Y76.751 E997.66543
G1 X62.416 Y77.555 E997.7875
G1 X61.987 Y78.106 E997.8746
G1 X60.572 Y79.816 E998.15143
G1 X59.848 Y80.622 E998.28656
G1 X59.479 Y80.991 E998.35165
G1 X57.943 Y82.462 E998.61691
G1 X57.04 Y83.262 E998.76738
G0 F4800 X55.783 Y84.223
G1 F1575 X62.291 Y77.715 E999.91531
G0 F600 X62.291 Y77.715 Z0.985
G0 F4800 X11.846 Y84.819
;TIME_ELAPSED:317.597943
;LAYER:-4
;TYPE:SUPPORT-INTERFACE
G1 F2100 X10.538 Y83.511 E999.99222
G1 X10.816 Y83.835 E1000.00997
G1 X11.592 Y84.602 E1000.05533
G1 X12.383 Y85.279 E1000.09862
G1 X13.174 Y85.867 E1000.13959
G1 X13.954 Y86.362 E1000.178
G1 X8.994 Y81.402 E1000.46963
G1 X8.431 Y80.34 E1000.5196
G1 X8.377 Y80.219 E1000.52511
G1 X15.157 Y86.999 E1000.92375
G1 X15.892 Y87.329 E1000.95725
G1 X16.141 Y87.417 E1000.96823
G1 X7.959 Y79.235 E1001.4493
G1 X7.718 Y78.568 E1001.47878
G1 X7.662 Y78.372 E1001.48726
G1 X17.01 Y87.721 E1002.03691
G1 X17.798 Y87.943 E1002.07095
G1 X7.436 Y77.581 E1002.6802
G1 X7.286 Y76.866 E1002.71057
G1 X18.513 Y88.092 E1003.37064
G1 X19.212 Y88.226 E1003.40024
G1 X7.168 Y76.182 E1004.10838
G1 X7.085 Y75.533 E1004.13558
G1 X19.891 Y88.339 E1004.88852
G1 X20.57 Y88.452 E1004.91714
G1 X7.052 Y74.934 E1005.71195
G1 X7.026 Y74.343 E1005.73654
G1 X21.249 Y88.565 E1006.57277
G1 X21.928 Y88.678 E1006.60139
G1 X7.015 Y73.766 E1007.47819
G1 X7.015 Y73.201 E1007.50168
G1 X22.607 Y88.792 E1008.4184
G1 X23.286 Y88.905 E1008.44701
G1 X7.015 Y72.635 E1009.40366
G1 X7.015 Y72.069 E1009.42719
G1 X23.965 Y89.019 E1010.42378
G1 X24.644 Y89.132 E1010.4524
G1 X7.015 Y71.504 E1011.48889
G1 X7.015 Y70.938 E1011.51242
G1 X25.322 Y89.245 E1012.5888
G1 X26.001 Y89.358 E1012.61742
G1 X7.015 Y70.372 E1013.73372
G1 X7.015 Y69.806 E1013.75726
G1 X26.68 Y89.471 E1014.91348
G1 X27.359 Y89.584 E1014.9421
G1 X7.015 Y69.241 E1016.13822
G1 X7.015 Y68.675 E1016.16175
G1 X28.035 Y89.695 E1017.39765
G1 X28.712 Y89.806 E1017.42617
G1 X7.015 Y68.109 E1018.70187
G1 X7.015 Y67.544 E1018.72536
G1 X29.398 Y89.927 E1020.04139
G1 X30.084 Y90.047 E1020.07035
G1 X7.015 Y66.978 E1021.42672
G1 X7.015 Y66.412 E1021.45025
G1 X30.77 Y90.167 E1022.84695
G1 X31.457 Y90.288 E1022.87595
G1 X7.015 Y65.847 E1024.31302
G1 X7.015 Y65.281 E1024.33655
G1 X32.14 Y90.406 E1025.8138
G1 X32.804 Y90.504 E1025.84171
G1 X7.015 Y64.715 E1027.358
G1 X7.015 Y64.15 E1027.38149
G1 X33.427 Y90.561 E1028.93439
G1 X34.038 Y90.607 E1028.95986
G1 X7.015 Y63.584 E1030.54871
G1 X7.015 Y63.018 E1030.57224
G1 X34.635 Y90.638 E1032.19619
G1 X35.233 Y90.67 E1032.22109
G1 X7.015 Y62.453 E1033.88017
