;FLAVOR:Marlin
;TIME:2969
;Filament used: 5.35738m
;Layer height: 0.3
;MINX:3.984
;MINY:6.964
;MINZ:0.36
;MAXX:68.745
;MAXY:90.196
;MAXZ:18.06
;Generated with Cura_SteamEngine 5.2.1
M140 S110
M105
M190 S110
M104 S235
M105
M109 S235
M82 ;absolute extrusion mode
G21 ;metric values
 G90 ;absolute positioning
 M82 ;set extruder to absolute mode
 M107 ;start with the fan off
 G28 X0 Y0 ;move X/Y to min endstops
 G28 Z0 ;move Z to min endstops
 G1 Z15.0 F120 ;move the platform down 15mm
 G92 E0 ;zero the extruded length
 G1 F200 E6 ;extrude 6 mm of feed stock
 G92 E0 ;zero the extruded length again
 G1 F120 
 ;Put printing message on LCD screen
 M117 Printing...
G92 E0
G92 E0
G1 F1500 E-6.5
;LAYER_COUNT:55
;LAYER:-6
M107
G0 F7200 X7.028 Y12.64 Z0.36
;TYPE:SUPPORT-INTERFACE
G1 F1500 E0
G1 F1350 X6.401 Y13.517 E0.12909
G1 X5.815 Y14.491 E0.26519
G1 X5.363 Y15.366 E0.38311
G1 X4.98 Y16.27 E0.50067
G1 X4.605 Y17.355 E0.63812
G1 X4.319 Y18.467 E0.7756
G1 X4.14 Y19.437 E0.89371
G1 X4.031 Y20.424 E1.01261
G1 X3.984 Y21.573 E1.1503
G1 X3.984 Y73.598 E7.37959
G1 X4.043 Y74.985 E7.54581
G1 X4.177 Y76.043 E7.67351
G1 X4.394 Y77.106 E7.80341
G1 X4.705 Y78.198 E7.93936
G1 X5.042 Y79.126 E8.05758
G1 X5.442 Y80.025 E8.1754
G1 X5.977 Y81.036 E8.31235
G1 X6.508 Y81.874 E8.43114
G1 X7.146 Y82.743 E8.56022
G1 X7.883 Y83.605 E8.69602
G1 X8.635 Y84.356 E8.82327
G1 X9.446 Y85.057 E8.95163
G1 X10.373 Y85.739 E9.08943
G1 X11.197 Y86.264 E9.20641
G1 X12.135 Y86.771 E9.33408
G1 X13.206 Y87.242 E9.47417
G1 X14.125 Y87.574 E9.59117
G1 X15.221 Y87.874 E9.72723
G1 X16.237 Y88.081 E9.85138
G1 X27.549 Y89.966 E11.22452
G1 X28.599 Y90.097 E11.35121
G1 X29.556 Y90.155 E11.46601
G1 X31.283 Y90.196 E11.67286
G1 X32.801 Y90.156 E11.85468
G1 X34.884 Y89.992 E12.10486
G1 X35.505 Y89.929 E12.1796
G1 X36.661 Y89.743 E12.31979
G1 X38.653 Y89.341 E12.56312
G1 X40.062 Y88.982 E12.73722
G1 X42.173 Y88.327 E13.00187
G1 X42.677 Y88.16 E13.06544
G1 X43.698 Y87.758 E13.19683
G1 X45.613 Y86.917 E13.44726
G1 X46.067 Y86.706 E13.50721
G1 X47.037 Y86.188 E13.63887
G1 X48.809 Y85.153 E13.88459
G1 X50.111 Y84.296 E14.07122
G1 X51.759 Y83.083 E14.31624
G1 X52.305 Y82.659 E14.39901
G1 X53.104 Y81.964 E14.52581
G1 X54.554 Y80.61 E14.76335
G1 X55.68 Y79.446 E14.95727
G1 X57.278 Y77.595 E15.25007
G1 X58.016 Y76.605 E15.39792
G1 X59.127 Y74.987 E15.63293
G1 X59.492 Y74.421 E15.71357
G1 X59.979 Y73.578 E15.83014
G1 X60.976 Y71.7 E16.08473
G1 X61.691 Y70.149 E16.28922
G1 X62.421 Y68.321 E16.52491
G1 X62.662 Y67.667 E16.60836
G1 X62.98 Y66.635 E16.73766
G1 X63.57 Y64.462 E17.00727
G1 X63.739 Y63.769 E17.09268
G1 X63.932 Y62.726 E17.21968
G1 X68.531 Y30.612 E21.10413
G1 X68.665 Y29.245 E21.2686
G1 X68.734 Y27.827 E21.43858
G1 X68.745 Y27.401 E21.48961
G1 X68.712 Y26.255 E21.62688
G1 X68.602 Y25.225 E21.75091
G1 X68.446 Y24.13 E21.88335
G1 X68.341 Y23.495 E21.96041
G1 X68.068 Y22.3 E22.10719
G1 X67.789 Y21.387 E22.2215
G1 X67.411 Y20.293 E22.36009
G1 X67.178 Y19.672 E22.4395
G1 X66.756 Y18.715 E22.56474
G1 X66.258 Y17.775 E22.69211
G1 X65.656 Y16.739 E22.83558
G1 X65.338 Y16.223 E22.90815
G1 X64.705 Y15.315 E23.04069
G1 X64.15 Y14.621 E23.14709
G1 X63.335 Y13.674 E23.29669
G1 X62.827 Y13.117 E23.38695
G1 X62.099 Y12.406 E23.5088
G1 X61.324 Y11.753 E23.63014
G1 X60.396 Y11.023 E23.77151
G1 X59.935 Y10.679 E23.84039
G1 X58.986 Y10.047 E23.97691
G1 X58.082 Y9.541 E24.10095
G1 X57.071 Y9.02 E24.23714
G1 X56.501 Y8.744 E24.31297
G1 X55.485 Y8.319 E24.44483
G1 X54.456 Y7.978 E24.57463
G1 X53.187 Y7.61 E24.73284
G1 X52.463 Y7.424 E24.82234
G1 X51.346 Y7.206 E24.95861
G1 X50.223 Y7.08 E25.09392
G1 X49.679 Y7.038 E25.15925
G1 X49.047 Y7.002 E25.23504
G1 X48.177 Y6.998 E25.33922
G1 X47.278 Y6.966 E25.44693
G1 X42.587 Y6.965 E26.00861
G1 X41.781 Y7.004 E26.10523
G1 X40.706 Y6.965 E26.23403
G1 X32.52 Y6.964 E27.2142
G1 X30.87 Y7.051 E27.41203
G1 X29.648 Y7.231 E27.55993
G1 X28.825 Y7.239 E27.65848
G1 X28.155 Y7.158 E27.73929
G1 X27.865 Y7.111 E27.77446
G1 X26.975 Y7.012 E27.88169
G1 X25.842 Y6.965 E28.01746
G1 X18.237 Y6.965 E28.92806
G1 X16.978 Y7.053 E29.07918
G1 X16.006 Y7.197 E29.19683
G1 X14.886 Y7.442 E29.33411
G1 X13.782 Y7.78 E29.47235
G1 X12.795 Y8.164 E29.59916
G1 X11.907 Y8.581 E29.71663
G1 X10.909 Y9.148 E29.85406
G1 X10.089 Y9.69 E29.97176
G1 X9.234 Y10.35 E30.10108
G1 X8.446 Y11.057 E30.22785
G1 X7.76 Y11.769 E30.34623
G1 X7.028 Y12.64 E30.48246
G0 F7200 X7.807 Y12.332
G1 F1350 X62.455 Y66.98 E39.73617
G0 F7200 X61.859 Y68.648
G1 F1350 X6.824 Y13.612 E49.05549
G0 F7200 X5.983 Y15.034
G1 F1350 X61.202 Y70.253 E58.40589
G0 F7200 X60.475 Y71.789
G1 F1350 X5.288 Y16.602 E67.75087
G0 F7200 X4.763 Y18.34
G1 F1350 X59.691 Y73.267 E77.0519
G0 F7200 X58.845 Y74.684
G1 F1350 X4.447 Y20.286 E86.26328
G0 F7200 X4.384 Y22.485
G1 F1350 X57.926 Y76.028 E95.32979
G0 F7200 X56.972 Y77.336
G1 F1350 X4.384 Y24.748 E104.23467
G0 F7200 X4.384 Y27.011
G1 F1350 X55.923 Y78.551 E112.96201
G0 F7200 X54.844 Y79.734
G1 F1350 X4.384 Y29.274 E121.50655
G0 F7200 X4.384 Y31.536
G1 F1350 X53.703 Y80.856 E129.85796
G0 F7200 X52.522 Y81.938
G1 F1350 X4.384 Y33.799 E138.0094
G0 F7200 X4.384 Y36.062
G1 F1350 X51.268 Y82.946 E145.94841
G0 F7200 X49.964 Y83.905
G1 F1350 X4.384 Y38.325 E153.6666
G0 F7200 X4.384 Y40.587
G1 F1350 X48.603 Y84.807 E161.15442
G0 F7200 X47.176 Y85.642
G1 F1350 X4.384 Y42.85 E168.40052
G0 F7200 X4.384 Y45.113
G1 F1350 X45.708 Y86.437 E175.39803
G0 F7200 X44.136 Y87.128
G1 F1350 X4.384 Y47.376 E182.12936
G0 F7200 X4.384 Y49.638
G1 F1350 X42.531 Y87.785 E188.5889
G0 F7200 X40.811 Y88.328
G1 F1350 X4.384 Y51.901 E194.75719
G0 F7200 X4.384 Y54.164
G1 F1350 X39.046 Y88.826 E200.62661
G0 F7200 X37.184 Y89.227
G1 F1350 X4.384 Y56.427 E206.18073
G0 F7200 X4.384 Y58.689
G1 F1350 X35.246 Y89.552 E211.40677
G0 F7200 X33.156 Y89.725
G1 F1350 X4.384 Y60.952 E216.2789
G0 F7200 X4.384 Y63.215
G1 F1350 X30.955 Y89.787 E220.77834
G0 F7200 X28.598 Y89.692
G1 F1350 X4.384 Y65.478 E224.87856
G0 F7200 X4.384 Y67.74
G1 F1350 X25.933 Y89.289 E228.52752
G0 F7200 X23.217 Y88.837
G1 F1350 X4.384 Y70.003 E231.71665
G0 F7200 X4.384 Y72.266
G1 F1350 X20.503 Y88.385 E234.44613
G0 F7200 X17.787 Y87.932
G1 F1350 X4.425 Y74.57 E236.70876
G0 F7200 X4.854 Y77.262
G1 F1350 X14.986 Y87.394 E238.42444
G0 F7200 X10.979 Y85.65
G1 F1350 X6.6 Y81.271 E239.16595
G0 F7200 X62.951 Y65.214
G1 F1350 X8.912 Y11.175 E248.31653
G0 F7200 X10.149 Y10.149
G1 F1350 X63.4 Y63.4 E257.33368
G0 F7200 X63.71 Y61.447
G1 F1350 X11.523 Y9.26 E266.17066
G0 F7200 X13.028 Y8.502
G1 F1350 X63.993 Y59.468 E274.8008
G0 F7200 X64.277 Y57.489
G1 F1350 X14.704 Y7.916 E283.19514
G0 F7200 X16.568 Y7.517
G1 F1350 X64.56 Y55.51 E291.32186
G0 F7200 X64.844 Y53.53
G1 F1350 X18.678 Y7.365 E299.1392
G0 F7200 X20.941 Y7.365
G1 F1350 X65.128 Y51.551 E306.62143
G0 F7200 X65.411 Y49.572
G1 F1350 X23.204 Y7.365 E313.76846
G0 F7200 X25.467 Y7.365
G1 F1350 X65.695 Y47.593 E320.58039
G0 F7200 X65.978 Y45.614
G1 F1350 X27.884 Y7.52 E327.03096
G0 F7200 X30.181 Y7.554
G1 F1350 X66.262 Y43.634 E333.14058
G0 F7200 X66.545 Y41.655
G1 F1350 X32.268 Y7.377 E338.94489
G0 F7200 X34.517 Y7.364
G1 F1350 X66.829 Y39.676 E344.41638
G0 F7200 X67.112 Y37.697
G1 F1350 X36.78 Y7.365 E349.55258
G0 F7200 X39.043 Y7.365
G1 F1350 X67.396 Y35.718 E354.35368
G0 F7200 X67.679 Y33.738
G1 F1350 X41.328 Y7.387 E358.81577
G0 F7200 X43.569 Y7.365
G1 F1350 X67.962 Y31.758 E362.94631
G0 F7200 X68.213 Y29.747
G1 F1350 X45.832 Y7.365 E366.73624
G0 F7200 X48.125 Y7.396
G1 F1350 X68.339 Y27.609 E370.15905
G0 F7200 X68.194 Y25.201
G1 F1350 X50.506 Y7.514 E373.15413
G0 F7200 X53.32 Y8.065
G1 F1350 X67.687 Y22.432 E375.58693
G0 F7200 X66.381 Y18.863
G1 F1350 X56.9 Y9.382 E377.19238
G0 F600 X56.9 Y9.382 Z0.81
G0 F7200 X5.778 Y15.434
;TIME_ELAPSED:145.688080
;LAYER:-5
;TYPE:SUPPORT
G1 F1350 X12.444 Y8.768 E378.60335
G1 X12.085 Y8.937 E378.66273
G1 X11.112 Y9.49 E378.83024
G1 X10.306 Y10.024 E378.97495
G1 X9.441 Y10.7 E379.13926
G1 X8.659 Y11.409 E379.29725
G1 X8.065 Y12.025 E379.42532
G1 X7.398 Y12.819 E379.58053
G1 X6.738 Y13.729 E379.74878
G1 X6.172 Y14.67 E379.91314
G1 X5.716 Y15.554 E380.06201
G1 X5.296 Y16.561 E380.22531
G1 X4.978 Y17.499 E380.37355
G1 X4.926 Y17.701 E380.40477
G1 X14.746 Y7.881 E382.48333
G1 X15.92 Y7.617 E382.66343
G1 X16.514 Y7.527 E382.75335
G1 X4.54 Y19.501 E385.28784
G1 X4.419 Y20.599 E385.45318
G1 X4.403 Y21.052 E385.52102
G1 X18.091 Y7.364 E388.41831
G1 X19.505 Y7.364 E388.62994
G1 X4.383 Y22.486 E391.83076
G1 X4.383 Y23.9 E392.04239
G1 X20.919 Y7.364 E395.5425
G1 X22.333 Y7.364 E395.75414
G1 X4.383 Y25.315 E399.55365
G1 X4.383 Y26.729 E399.76529
G1 X23.748 Y7.364 E403.8642
G1 X25.162 Y7.364 E404.07584
G1 X4.383 Y28.143 E408.47405
G1 X4.383 Y29.557 E408.68568
G1 X26.547 Y7.393 E413.37705
G1 X26.927 Y7.408 E413.43397
G1 X27.843 Y7.511 E413.57194
G1 X4.383 Y30.971 E418.53762
G1 X4.383 Y32.386 E418.74941
G1 X29.132 Y7.636 E423.98804
G1 X29.655 Y7.634 E424.06632
G1 X30.704 Y7.479 E424.22503
G1 X4.383 Y33.8 E429.79629
G1 X4.383 Y35.214 E430.00793
G1 X32.234 Y7.363 E435.90304
G1 X33.648 Y7.363 E436.11468
G1 X4.383 Y36.628 E442.30909
G1 X4.383 Y38.043 E442.52087
G1 X35.062 Y7.363 E449.01469
G1 X36.476 Y7.363 E449.22632
G1 X4.383 Y39.457 E456.01943
G1 X4.383 Y40.871 E456.23106
G1 X37.89 Y7.364 E463.32336
G1 X39.304 Y7.364 E463.535
G1 X4.383 Y42.285 E470.92659
G1 X4.383 Y43.699 E471.13823
G1 X40.718 Y7.364 E478.82912
G1 X42.085 Y7.412 E479.03385
G1 X4.383 Y45.114 E487.01408
G1 X4.383 Y46.528 E487.22572
G1 X43.547 Y7.364 E495.51541
G1 X44.961 Y7.364 E495.72705
G1 X4.383 Y47.942 E504.31604
G1 X4.383 Y49.356 E504.52767
G1 X46.375 Y7.364 E513.41596
G1 X47.255 Y7.365 E513.54767
G1 X47.77 Y7.383 E513.6248
G1 X4.383 Y50.77 E522.80836
G1 X4.383 Y52.185 E523.02014
G1 X49.168 Y7.399 E532.49972
G1 X50.479 Y7.502 E532.69654
G1 X4.383 Y53.599 E542.45361
G1 X4.383 Y55.013 E542.66525
G1 X51.712 Y7.684 E552.6832
G1 X52.386 Y7.814 E552.78594
G1 X52.871 Y7.939 E552.8609
G1 X4.383 Y56.427 E563.12417
G1 X4.383 Y57.842 E563.33595
G1 X53.982 Y8.242 E573.83449
G1 X55.044 Y8.594 E574.00194
G1 X4.383 Y59.256 E584.72527
G1 X4.383 Y60.67 E584.93691
G1 X56.071 Y8.981 E595.87762
G1 X57.022 Y9.445 E596.03599
G1 X4.383 Y62.084 E607.17789
G1 X4.383 Y63.498 E607.38952
G1 X57.955 Y9.927 E618.7288
G1 X58.861 Y10.435 E618.88426
G1 X4.383 Y64.913 E630.41541
G1 X4.383 Y66.327 E630.62705
G1 X59.705 Y11.005 E642.33684
G1 X60.506 Y11.618 E642.48781
G1 X4.383 Y67.741 E654.36715
G1 X4.383 Y69.155 E654.57879
G1 X61.289 Y12.249 E666.62386
G1 X62.053 Y12.899 E666.774
G1 X4.383 Y70.569 E678.98079
G1 X4.383 Y71.984 E679.19257
G1 X62.754 Y13.612 E691.54784
G1 X63.409 Y14.372 E691.69801
G1 X4.374 Y73.407 E704.19372
G1 X4.433 Y74.762 E704.39672
G1 X64.052 Y15.143 E717.01605
G1 X64.436 Y15.617 E717.10735
G1 X64.662 Y15.948 E717.16734
G1 X4.585 Y76.024 E729.8835
G1 X4.818 Y77.205 E730.06367
G1 X65.226 Y16.798 E742.8499
G1 X65.746 Y17.692 E743.00469
G1 X5.159 Y78.278 E755.8288
G1 X5.415 Y78.982 E755.94092
G1 X5.555 Y79.297 E755.99252
G1 X66.244 Y18.608 E768.83833
G1 X66.397 Y18.895 E768.887
G1 X66.695 Y19.571 E768.99758
G1 X6.014 Y80.252 E781.84169
G1 X6.511 Y81.169 E781.9978
G1 X67.089 Y20.591 E794.82012
G1 X67.453 Y21.641 E794.98645
G1 X7.097 Y81.998 E807.76188
G1 X7.457 Y82.489 E807.853
G1 X7.717 Y82.792 E807.91276
G1 X67.764 Y22.745 E820.62268
G1 X68.025 Y23.898 E820.79962
G1 X8.386 Y83.537 E833.42318
G1 X9.097 Y84.24 E833.57283
G1 X68.187 Y25.15 E846.08019
G1 X68.321 Y26.43 E846.27281
G1 X9.874 Y84.877 E858.64407
G1 X10.687 Y85.479 E858.79548
G1 X68.332 Y27.833 E870.99708
G1 X68.262 Y29.318 E871.21959
G1 X11.57 Y86.01 E883.21937
G1 X12.493 Y86.501 E883.37584
G1 X68.083 Y30.911 E895.14237
G1 X67.848 Y32.56 E895.39167
G1 X13.49 Y86.918 E906.89742
G1 X14.535 Y87.288 E907.06334
G1 X67.612 Y34.21 E918.29805
G1 X67.376 Y35.86 E918.54752
G1 X15.68 Y87.556 E929.48982
G1 X16.303 Y87.685 E929.58504
G1 X16.87 Y87.78 E929.67109
G1 X67.141 Y37.51 E940.31165
G1 X66.905 Y39.16 E940.56112
G1 X18.083 Y87.982 E950.89509
G1 X19.295 Y88.184 E951.07899
G1 X66.67 Y40.809 E961.10668
G1 X66.434 Y42.459 E961.35615
G1 X20.507 Y88.386 E971.07734
G1 X21.719 Y88.589 E971.26127
G1 X66.199 Y44.109 E980.67618
G1 X65.963 Y45.759 E980.92565
G1 X22.931 Y88.791 E990.03407
G1 X24.144 Y88.992 E990.2181
G1 X65.728 Y47.408 E999.02003
G1 X65.492 Y49.059 E999.26965
G1 X25.356 Y89.195 E1007.76508
G1 X26.568 Y89.397 E1007.94898
G1 X65.256 Y50.708 E1016.13803
G1 X65.021 Y52.358 E1016.38748
G1 X27.786 Y89.593 E1024.26887
G1 X28.643 Y89.699 E1024.39812
G1 X29.068 Y89.725 E1024.46184
G1 X64.785 Y54.008 E1032.02193
G1 X64.55 Y55.657 E1032.27123
G1 X30.432 Y89.775 E1039.49285
G1 X31.29 Y89.796 E1039.62131
G1 X31.841 Y89.78 E1039.70381
G1 X64.314 Y57.307 E1046.57725
G1 X64.077 Y58.959 E1046.82704
G1 X33.32 Y89.716 E1053.33725
G1 X34.858 Y89.592 E1053.5682
G1 X63.834 Y60.616 E1059.70144
G1 X63.59 Y62.274 E1059.95226
G1 X36.5 Y89.364 E1065.6863
G1 X38.265 Y89.014 E1065.95561
G1 X63.282 Y63.996 E1071.25097
G1 X62.754 Y65.939 E1071.55233
G1 X40.158 Y88.534 E1076.33503
G1 X42.219 Y87.888 E1076.6583
G1 X62.128 Y67.978 E1080.87247
G1 X61.177 Y70.344 E1081.25412
G1 X44.592 Y86.929 E1084.76461
G1 X45.444 Y86.554 E1084.90393
G1 X45.998 Y86.292 E1084.99566
G1 X46.842 Y85.839 E1085.13902
G1 X47.456 Y85.48 E1085.24548
G1 X59.715 Y73.22 E1087.8404
G1 X59.633 Y73.376 E1087.86678
G1 X59.146 Y74.219 E1088.01249
G1 X58.8 Y74.756 E1088.1081
G1 X57.698 Y76.36 E1088.39937
G1 X57.113 Y77.148 E1088.54626
G1 X56.731 Y77.615 E1088.63656
G1 X55.391 Y79.167 E1088.94345
G1 X54.275 Y80.325 E1089.18416
G1 X52.845 Y81.66 E1089.47696
G1 X51.978 Y82.411 E1089.64864
G1 X51.807 Y82.542 E1089.68088
G1 X56.713 Y77.636 E1090.71931
G0 F600 X56.713 Y77.636 Z1.11
G0 F7200 X6.838 Y81.647
;TIME_ELAPSED:358.221062
;LAYER:-4
;TYPE:SUPPORT-INTERFACE
G1 F1800 X7.457 Y82.489 E1090.77145
G1 X8.174 Y83.326 E1090.82643
G1 X8.975 Y84.12 E1090.8827
G1 X9.676 Y84.73 E1090.92906
G1 X10.521 Y85.356 E1090.98153
G1 X10.978 Y85.649 E1091.00861
G1 X6.525 Y81.195 E1091.32283
G1 X5.856 Y79.961 E1091.39286
G1 X12.302 Y86.407 E1091.84766
G1 X13.316 Y86.855 E1091.90297
G1 X5.398 Y78.937 E1092.46162
G1 X5.079 Y78.052 E1092.50856
G1 X14.205 Y87.178 E1093.15245
G1 X14.991 Y87.399 E1093.19318
G1 X4.852 Y77.26 E1093.90854
G1 X4.684 Y76.526 E1093.94611
G1 X15.722 Y87.564 E1094.7249
G1 X16.43 Y87.706 E1094.76092
G1 X4.553 Y75.829 E1095.59891
G1 X4.469 Y75.18 E1095.63156
G1 X17.109 Y87.819 E1096.52334
G1 X17.787 Y87.932 E1096.55764
G1 X4.424 Y74.569 E1097.50047
G1 X4.398 Y73.978 E1097.52998
G1 X18.466 Y88.046 E1098.52255
G1 X19.145 Y88.159 E1098.5569
G1 X4.382 Y73.396 E1099.59851
G1 X4.382 Y72.83 E1099.62674
G1 X19.824 Y88.272 E1100.71626
G1 X20.503 Y88.385 E1100.7506
G1 X4.382 Y72.264 E1101.88803
G1 X4.382 Y71.699 E1101.91621
G1 X21.182 Y88.498 E1103.10151
G1 X21.86 Y88.611 E1103.1358
G1 X4.382 Y71.133 E1104.36897
G1 X4.382 Y70.567 E1104.39721
G1 X22.539 Y88.724 E1105.67828
G1 X23.218 Y88.838 E1105.71263
G1 X4.382 Y70.002 E1107.04161
G1 X4.382 Y69.436 E1107.06985
G1 X23.897 Y88.951 E1108.44674
G1 X24.576 Y89.064 E1108.48108
G1 X4.382 Y68.87 E1109.90587
G1 X4.382 Y68.305 E1109.93406
G1 X25.255 Y89.177 E1111.40673
G1 X25.934 Y89.291 E1111.44108
G1 X4.382 Y67.739 E1112.96169
G1 X4.382 Y67.173 E1112.98993
G1 X26.613 Y89.404 E1114.55845
G1 X27.292 Y89.517 E1114.59279
G1 X4.382 Y66.608 E1116.20918
G1 X4.382 Y66.042 E1116.23741
G1 X27.953 Y89.613 E1117.90047
G1 X28.599 Y89.693 E1117.93295
G1 X4.382 Y65.476 E1119.64159
G1 X4.382 Y64.91 E1119.66983
G1 X29.204 Y89.732 E1121.42115
G1 X29.797 Y89.76 E1121.45077
G1 X4.382 Y64.345 E1123.24394
G1 X4.382 Y63.779 E1123.27218
G1 X30.376 Y89.773 E1125.10619
G1 X30.956 Y89.787 E1125.13514
G1 X4.382 Y63.213 E1127.01008
G1 X4.382 Y62.648 E1127.03826
G1 X31.523 Y89.789 E1128.95321
G1 X32.072 Y89.772 E1128.98061
G1 X4.382 Y62.082 E1130.93429
G1 X4.382 Y61.516 E1130.96253
G1 X32.622 Y89.756 E1132.95501
G1 X33.159 Y89.728 E1132.98184
G1 X4.382 Y60.951 E1135.01221
G1 X4.382 Y60.385 E1135.04045
G1 X33.683 Y89.686 E1137.10779
G1 X34.206 Y89.644 E1137.13397
G1 X4.382 Y59.819 E1139.23825
G1 X4.382 Y59.254 E1139.26644
