;FLAVOR:Marlin
;TIME:5647
;Filament used: 4.09733m
;Layer height: 0.15
;MINX:90.548
;MINY:60.517
;MINZ:0.2
;MAXX:159.43
;MAXY:149.493
;MAXZ:18.05
;Generated with Cura_SteamEngine main
M82 ;absolute extrusion mode
G21 ; set units to millimeters
G90 ; use absolute positioning
M82 ; absolute extrusion mode
M104 S215.0 ; set extruder temp
M140 S60 ; set bed temp
M190 S60 ; wait for bed temp
M109 S215.0 ; wait for extruder temp
G28 W ; home all without mesh bed level
G80 ; mesh bed leveling
G92 E0.0 ; reset extruder distance position
G1 Y-3.0 F1000.0 ; go outside print area
G1 X60.0 E9.0 F1000.0 ; intro line
G1 X100.0 E21.5 F1000.0 ; intro line
G92 E0.0 ; reset extruder distance position
G92 E0
G92 E0
G1 F2100 E-0.8
;LAYER_COUNT:120
;LAYER:0
M107
G0 F3600 X91.205 Y68.173 Z0.2
G0 X90.548 Y70.745
;TYPE:SKIRT
G1 F2100 E0
G1 F1800 X90.558 Y70.056 E0.02292
G1 X90.606 Y69.552 E0.03976
G1 X90.732 Y69.063 E0.05655
G1 X90.933 Y68.599 E0.07337
G1 X91.205 Y68.173 E0.09018
G1 X91.541 Y67.795 E0.107
G1 X91.932 Y67.474 E0.12383
G1 X92.368 Y67.219 E0.14063
G1 X92.936 Y67 E0.16088
G1 X93.765 Y66.847 E0.18891
G1 X130.663 Y60.697 E1.43308
G1 X131.486 Y60.571 E1.46077
G1 X132.77 Y60.529 E1.5035
G1 X133.697 Y60.517 E1.53433
G1 X134.592 Y60.518 E1.5641
G1 X135.383 Y60.604 E1.59056
G1 X136.648 Y60.761 E1.63296
G1 X137.568 Y60.887 E1.66385
G1 X139.554 Y61.407 E1.73213
G1 X140.43 Y61.654 E1.7624
G1 X141.183 Y61.956 E1.78938
G1 X142.387 Y62.462 E1.83282
G1 X143.201 Y62.819 E1.86238
G1 X143.912 Y63.228 E1.88967
G1 X144.963 Y63.852 E1.93032
G1 X145.768 Y64.346 E1.96173
G1 X146.401 Y64.833 E1.9883
G1 X147.459 Y65.677 E2.03331
G1 X148.108 Y66.211 E2.06126
G1 X148.641 Y66.754 E2.08657
G1 X149.592 Y67.755 E2.13249
G1 X150.156 Y68.366 E2.16015
G1 X150.602 Y68.964 E2.18496
G1 X151.409 Y70.088 E2.23098
G1 X151.904 Y70.797 E2.25975
G1 X152.31 Y71.54 E2.28791
G1 X152.921 Y72.698 E2.33145
G1 X153.301 Y73.449 E2.35945
G1 X153.587 Y74.195 E2.38602
G1 X154.042 Y75.456 E2.43061
G1 X154.321 Y76.261 E2.45895
G1 X154.491 Y76.991 E2.48387
G1 X154.844 Y78.666 E2.54081
G1 X155.094 Y80.17 E2.59152
G1 X155.216 Y81.087 E2.62229
G1 X159.281 Y109.35 E3.57199
G1 X159.379 Y110.103 E3.59725
G1 X159.423 Y111.235 E3.63493
G1 X159.43 Y112.02 E3.66104
G1 X159.357 Y112.722 E3.68451
G1 X159.182 Y113.522 E3.71175
G1 X158.994 Y114.28 E3.73772
G1 X158.756 Y114.945 E3.76122
G1 X158.32 Y115.801 E3.79317
G1 X158.009 Y116.388 E3.81526
G1 X157.647 Y116.929 E3.83691
G1 X156.98 Y117.733 E3.87166
G1 X156.565 Y118.202 E3.89249
G1 X156.036 Y118.68 E3.9162
G1 X155.269 Y119.23 E3.94759
G1 X154.722 Y119.602 E3.96959
G1 X154.092 Y119.935 E3.99329
G1 X153.244 Y120.268 E4.0236
G1 X152.33 Y120.601 E4.05595
G1 X151.57 Y120.76 E4.08177
G1 X148.831 Y121.373 E4.17513
G1 X146.224 Y122.036 E4.2646
G1 X143.561 Y122.794 E4.35669
G1 X140.959 Y123.613 E4.44742
G1 X138.355 Y124.516 E4.53908
G1 X135.833 Y125.471 E4.62878
G1 X133.274 Y126.523 E4.7208
G1 X130.757 Y127.643 E4.81243
G1 X128.311 Y128.815 E4.90264
G1 X125.886 Y130.061 E4.99332
G1 X123.459 Y131.397 E5.08547
G1 X121.107 Y132.781 E5.17623
G1 X118.805 Y134.224 E5.2666
G1 X116.52 Y135.747 E5.35793
G1 X114.27 Y137.341 E5.44964
G1 X112.069 Y138.996 E5.54124
G1 X109.957 Y140.68 E5.63108
G1 X107.863 Y142.449 E5.72225
G1 X105.833 Y144.264 E5.81282
G1 X103.831 Y146.158 E5.90448
G1 X101.905 Y148.079 E5.99496
G1 X101.47 Y148.446 E6.01389
G1 X100.826 Y148.872 E6.03957
G1 X100.38 Y149.111 E6.0564
G1 X99.672 Y149.326 E6.08101
G1 X99.1 Y149.43 E6.10035
G1 X98.582 Y149.482 E6.11766
G1 X97.93 Y149.493 E6.13935
G1 X94.409 Y149.493 E6.25646
G1 X93.711 Y149.483 E6.27968
G1 X93.208 Y149.436 E6.29648
G1 X92.718 Y149.31 E6.31331
G1 X92.254 Y149.108 E6.33014
G1 X91.828 Y148.836 E6.34695
G1 X91.45 Y148.501 E6.36375
G1 X91.13 Y148.11 E6.38055
G1 X90.875 Y147.673 E6.39738
G1 X90.692 Y147.202 E6.41419
G1 X90.585 Y146.708 E6.431
G1 X90.549 Y146.038 E6.45332
G1 X90.548 Y70.745 E8.95757
G1 F2100 E8.15757
G0 F3600 X93.093 Y69.539
G0 X131.789 Y63.08
G0 X134.438 Y63.042
G0 X137.063 Y63.366
G0 X139.618 Y64.049
G0 X142.056 Y65.075
G0 X144.33 Y66.426
G0 X146.399 Y68.075
G0 X148.22 Y69.993
G0 X149.762 Y72.142
G0 X150.994 Y74.482
G0 X151.893 Y76.969
G0 X152.436 Y79.501
G0 X152.817 Y82.244
G0 X149.4 Y82.338
G0 X133.094 Y82.674
G0 X133.048 Y82.677
;TYPE:SUPPORT
G1 F2100 E8.95757
G1 F1800 X146.491 Y82.677 E9.40469
G0 F3600 X146.685 Y82.919
G1 F1800 X146.685 Y117.798 E10.56477
G0 F3600 X144.018 Y117.798
G1 F1800 X144.018 Y82.369 E11.74314
G0 F3600 X141.351 Y82.359
G1 F1800 X141.351 Y117.798 E12.92185
G0 F3600 X138.684 Y117.798
G1 F1800 X138.684 Y82.349 E14.10089
G0 F3600 X136.017 Y82.339
G1 F1800 X136.017 Y83.881 E14.15217
G0 F3600 X136.978 Y85.344
G1 F1800 X152.67 Y85.344 E14.67409
G0 F3600 X152.019 Y83.294
G1 F1800 X152.019 Y117.396 E15.80833
G1 X152.14 Y117.348
G1 X132.968 Y117.348 E16.44599
G0 F3600 X133.35 Y117.798
G1 F1800 X133.35 Y101.09 E17.0017
G0 F3600 X132.968 Y101.346
G1 F1800 X154.977 Y101.346 E17.73372
G0 F3600 X154.686 Y99.314
G1 F1800 X154.686 Y115.617 E18.27596
G0 F3600 X155.384 Y114.681
G1 F1800 X132.968 Y114.681 E19.02152
G0 F3600 X132.968 Y112.014
G1 F1800 X156.318 Y112.014 E19.79815
G0 F3600 X156.128 Y109.347
G1 F1800 X132.968 Y109.347 E20.56845
G0 F3600 X132.968 Y106.68
G1 F1800 X155.744 Y106.68 E21.32599
G0 F3600 X155.361 Y104.013
G1 F1800 X132.968 Y104.013 E22.07078
G1 F2100 E21.27078
G0 F3600 X133.016 Y104.013
G0 X136.017 Y101.09
G1 F2100 E22.07078
G1 F1800 X136.017 Y117.798 E22.62649
G1 F2100 E21.82649
G0 F3600 X149.352 Y117.798
G1 F2100 E22.62649
G1 F1800 X149.352 Y83.023 E23.78311
G1 F2100 E22.98311
G0 F3600 X153.059 Y88.011
G1 F2100 E23.78311
G1 F1800 X136.981 Y88.011 E24.31787
G0 F3600 X136.984 Y90.678
G1 F1800 X153.442 Y90.678 E24.86526
G0 F3600 X153.826 Y93.345
G1 F1800 X137.161 Y93.345 E25.41954
G0 F3600 X137.165 Y96.012
G1 F1800 X154.21 Y96.012 E25.98646
G0 F3600 X154.593 Y98.679
G1 F1800 X137.169 Y98.679 E26.56599
G1 F2100 E25.76599
G0 F3600 X133.35 Y83.771
G1 F2100 E26.56599
G1 F1800 X133.35 Y82.4 E26.61159
G1 F2100 E25.81159
;MESH:connector.stl
G0 F3600 X133.356 Y81.289
G0 X132.246 Y80.805
G1 F2100 E26.61159
G0 F3600 X132.244 Y81.312
;TYPE:WALL-INNER
G1 F1800 X132.764 Y81.107 E26.63018
G1 X145.907 Y81.155 E27.06732
G1 X146.015 Y81.019 E27.07309
G1 X148.557 Y81.017 E27.15764
G1 X151.373 Y81.001 E27.2513
G1 X151.196 Y79.762 E27.29293
G1 X150.673 Y77.316 E27.37612
G1 X149.834 Y74.995 E27.45821
G1 X148.682 Y72.807 E27.54045
G1 X147.244 Y70.803 E27.62249
G1 X145.541 Y69.01 E27.70474
G1 X143.609 Y67.468 E27.78696
G1 X141.483 Y66.205 E27.8692
G1 X139.194 Y65.246 E27.95175
G1 X136.819 Y64.611 E28.03352
G1 X134.368 Y64.308 E28.11566
G1 X131.904 Y64.343 E28.19762
G1 X94.348 Y70.602 E29.46396
G1 X94.349 Y145.692 E31.96147
G1 X98.46 Y145.692 E32.0982
G1 X98.894 Y145.607 E32.11291
G1 X99.205 Y145.4 E32.12533
G1 X99.418 Y145.088 E32.1379
G1 X99.509 Y144.654 E32.15265
G1 X99.598 Y141.418 E32.26032
G1 X99.784 Y138.337 E32.36298
G1 X100.064 Y135.463 E32.45902
G1 X100.44 Y132.796 E32.5486
G1 X100.903 Y130.382 E32.63036
G1 X101.484 Y128.083 E32.70923
G1 X102.147 Y126.048 E32.78041
G1 X102.896 Y124.24 E32.8455
G1 X103.795 Y122.55 E32.90917
G1 X104.727 Y121.179 E32.96431
G1 X105.832 Y119.925 E33.0199
G1 X107.022 Y118.918 E33.07175
G1 X108.323 Y118.127 E33.12239
G1 X109.706 Y117.57 E33.17198
G1 X111.201 Y117.232 E33.22296
G1 X112.779 Y117.118 E33.27558
G1 X131.75 Y117.118 E33.90656
G1 X131.751 Y82.136 E35.07006
G1 X131.867 Y81.781 E35.08248
G1 X132.087 Y81.451 E35.09568
G1 X132.244 Y81.312 E35.10265
G0 F3600 X132.246 Y80.805
G0 X146.092 Y80.718
G0 X146.092 Y81.423
;TYPE:WALL-OUTER
G1 F1800 X151.834 Y81.398 E35.29363
G1 X151.592 Y79.705 E35.35051
G1 X151.059 Y77.206 E35.4355
G1 X150.201 Y74.833 E35.51943
G1 X149.023 Y72.596 E35.60352
G1 X147.553 Y70.547 E35.68739
G1 X145.812 Y68.714 E35.77147
G1 X143.837 Y67.138 E35.85551
G1 X141.663 Y65.847 E35.93961
G1 X139.324 Y64.866 E36.02397
G1 X136.895 Y64.217 E36.10759
G1 X134.39 Y63.908 E36.19154
G1 X131.868 Y63.943 E36.27543
G1 X93.948 Y70.263 E37.55405
G1 X93.949 Y146.092 E40.07613
G1 X98.499 Y146.092 E40.22747
G1 X99.049 Y145.984 E40.24611
G1 X99.492 Y145.69 E40.26379
G1 X99.793 Y145.248 E40.28158
G1 X99.908 Y144.701 E40.30017
G1 X99.998 Y141.442 E40.40861
G1 X100.182 Y138.376 E40.51077
G1 X100.46 Y135.519 E40.60624
G1 X100.833 Y132.872 E40.69515
G1 X101.299 Y130.447 E40.77728
G1 X101.864 Y128.207 E40.85412
G1 X102.511 Y126.216 E40.92375
G1 X103.274 Y124.376 E40.99
G1 X104.126 Y122.775 E41.05032
G1 X105.058 Y121.404 E41.10546
G1 X106.122 Y120.204 E41.1588
G1 X107.26 Y119.242 E41.20836
G1 X108.501 Y118.488 E41.25666
G1 X109.834 Y117.949 E41.30448
G1 X111.268 Y117.626 E41.35337
G1 X112.785 Y117.518 E41.40395
G1 X132.15 Y117.518 E42.04804
G1 X132.153 Y82.176 E43.22352
G1 X132.217 Y81.975 E43.23053
G1 X132.401 Y81.699 E43.24156
G1 X132.806 Y81.511 E43.25642
G1 X145.986 Y81.555 E43.69479
G1 X146.092 Y81.423 E43.70042
G0 F3600 X146.292 Y81.423
G0 X146.292 Y80.718
G0 X132.395 Y80.806
G0 X132.395 Y80.822
;TYPE:SKIN
G1 F1800 X132.753 Y80.728 E43.71273
G1 X145.78 Y80.774 E44.14601
G1 X145.94 Y80.644 E44.15287
G1 X150.935 Y80.623 E44.319
G1 X150.819 Y79.814 E44.34619
G1 X150.306 Y77.419 E44.42765
G1 X149.485 Y75.15 E44.50791
G1 X148.356 Y73.005 E44.58853
G1 X146.951 Y71.048 E44.66866
G1 X145.282 Y69.291 E44.74926
G1 X143.39 Y67.782 E44.82975
G1 X141.309 Y66.544 E44.91028
G1 X139.056 Y65.603 E44.99149
G1 X136.743 Y64.985 E45.07112
G1 X134.346 Y64.689 E45.15145
G1 X131.94 Y64.723 E45.23148
G1 X94.728 Y70.925 E46.48623
G1 X94.73 Y145.311 E48.96032
G1 X98.42 Y145.311 E49.08305
G1 X98.749 Y145.247 E49.0942
G1 X98.932 Y145.124 E49.10153
G1 X99.06 Y144.937 E49.10907
G1 X99.129 Y144.608 E49.12025
G1 X99.218 Y141.422 E49.22626
G1 X99.403 Y138.328 E49.32935
G1 X99.683 Y135.443 E49.42576
G1 X100.06 Y132.764 E49.51574
G1 X100.53 Y130.312 E49.59878
G1 X101.106 Y128.017 E49.67748
G1 X101.791 Y125.916 E49.75098
G1 X102.551 Y124.078 E49.81713
G1 X103.425 Y122.428 E49.87923
G1 X104.426 Y120.946 E49.93871
G1 X105.544 Y119.674 E49.99504
G1 X106.798 Y118.609 E50.04976
G1 X108.153 Y117.787 E50.10247
G1 X109.603 Y117.203 E50.15446
G1 X111.15 Y116.851 E50.20723
G1 X112.745 Y116.739 E50.26041
G1 X131.37 Y116.738 E50.87988
G1 X131.377 Y82.092 E52.03221
G1 X131.496 Y81.672 E52.04673
G1 X131.757 Y81.259 E52.06298
G1 X132.047 Y80.985 E52.07625
G1 X132.395 Y80.822 E52.08903
G0 F3600 X132.395 Y80.806
G0 X143.048 Y67.812
G1 F1800 X147.775 Y72.539 E52.31137
G1 X147.845 Y72.609
G0 F3600 X148.635 Y73.964
G1 F1800 X141.651 Y66.981 E52.63986
G1 X141.581 Y66.911
G0 F3600 X140.548 Y66.443
G1 F1800 X149.263 Y75.159 E53.04981
G1 X149.333 Y75.229
G0 F3600 X149.602 Y76.063
G1 F1800 X139.577 Y66.038 E53.52135
G1 X139.507 Y65.968
G0 F3600 X138.685 Y65.712
G1 F1800 X149.922 Y76.949 E54.04991
G1 X149.992 Y77.019
G0 F3600 X150.176 Y77.768
G1 F1800 X137.913 Y65.505 E54.62672
G0 F3600 X137.141 Y65.299
G1 F1800 X150.33 Y78.488 E55.24709
G0 F3600 X150.486 Y79.21
G1 F1800 X136.423 Y65.147 E55.90857
G0 F3600 X135.778 Y65.067
G1 F1800 X150.632 Y79.922 E56.60728
G0 F3600 X150.57 Y80.425
G1 F1800 X135.133 Y64.988 E57.33339
G0 F3600 X134.487 Y64.908
G1 F1800 X150.007 Y80.428 E58.0634
G0 F3600 X149.445 Y80.431
G1 F1800 X133.909 Y64.895 E58.79417
G0 F3600 X133.351 Y64.903
G1 F1800 X148.883 Y80.435 E59.52475
G0 F3600 X148.319 Y80.437
G1 F1800 X132.793 Y64.911 E60.25504
G0 F3600 X132.236 Y64.919
G1 F1800 X147.754 Y80.437 E60.98496
G0 F3600 X147.189 Y80.438
G1 F1800 X131.714 Y64.964 E61.71283
G0 F3600 X131.229 Y65.044
G1 F1800 X146.623 Y80.438 E62.43692
G0 F3600 X146.057 Y80.438
G1 F1800 X130.744 Y65.125 E63.1572
G0 F3600 X130.259 Y65.205
G1 F1800 X145.625 Y80.571 E63.87997
G0 F3600 X145.058 Y80.57
G1 F1800 X129.775 Y65.287 E64.59883
G0 F3600 X129.29 Y65.367
G1 F1800 X144.49 Y80.568 E65.31382
G0 F3600 X143.923 Y80.566
G1 F1800 X128.805 Y65.448 E66.02492
G0 F3600 X128.32 Y65.529
G1 F1800 X143.356 Y80.564 E66.73215
G0 F3600 X142.788 Y80.562
G1 F1800 X127.835 Y65.61 E67.43547
G0 F3600 X127.35 Y65.69
G1 F1800 X142.22 Y80.56 E68.1349
G0 F3600 X141.652 Y80.558
G1 F1800 X126.865 Y65.771 E68.83044
G0 F3600 X126.381 Y65.852
G1 F1800 X141.085 Y80.557 E69.52209
G0 F3600 X140.517 Y80.555
G1 F1800 X125.896 Y65.933 E70.20985
G0 F3600 X125.411 Y66.014
G1 F1800 X139.949 Y80.552 E70.89367
G0 F3600 X139.382 Y80.551
G1 F1800 X124.926 Y66.095 E71.57363
G0 F3600 X124.441 Y66.176
G1 F1800 X138.814 Y80.549 E72.2497
G0 F3600 X138.247 Y80.547
G1 F1800 X123.956 Y66.256 E72.9219
G0 F3600 X123.471 Y66.337
G1 F1800 X137.68 Y80.545 E73.59023
G0 F3600 X137.112 Y80.543
G1 F1800 X122.987 Y66.418 E74.25462
G0 F3600 X122.502 Y66.499
G1 F1800 X136.544 Y80.541 E74.91511
G0 F3600 X135.977 Y80.54
G1 F1800 X122.016 Y66.579 E75.5718
G0 F3600 X121.531 Y66.66
G1 F1800 X135.409 Y80.538 E76.22458
G0 F3600 X134.841 Y80.535
G1 F1800 X121.047 Y66.741 E76.8734
G0 F3600 X120.562 Y66.822
G1 F1800 X134.274 Y80.534 E77.51837
G0 F3600 X133.706 Y80.532
G1 F1800 X120.077 Y66.902 E78.15946
G0 F3600 X119.592 Y66.984
G1 F1800 X133.139 Y80.53 E78.79665
G0 F3600 X132.603 Y80.56
G1 F1800 X119.107 Y67.064 E79.43146
G0 F3600 X118.622 Y67.145
G1 F1800 X132.179 Y80.702 E80.06914
G0 F3600 X131.83 Y80.918
G1 F1800 X118.137 Y67.226 E80.71319
G0 F3600 X117.653 Y67.307
G1 F1800 X131.555 Y81.209 E81.3671
G0 F3600 X131.337 Y81.556
G1 F1800 X117.168 Y67.387 E82.03357
G0 F3600 X116.683 Y67.468
G1 F1800 X131.205 Y81.99 E82.71664
G0 F3600 X131.174 Y82.525
G1 F1800 X116.198 Y67.549 E83.42106
G0 F3600 X115.713 Y67.63
G1 F1800 X131.174 Y83.091 E84.1483
G0 F3600 X131.174 Y83.657
G1 F1800 X115.228 Y67.711 E84.89835
G0 F3600 X114.743 Y67.791
G1 F1800 X131.174 Y84.222 E85.67121
G0 F3600 X131.174 Y84.788
G1 F1800 X114.259 Y67.873 E86.46684
G0 F3600 X113.774 Y67.953
G1 F1800 X131.174 Y85.354 E87.28531
G0 F3600 X131.174 Y85.919
G1 F1800 X113.289 Y68.034 E88.12657
G0 F3600 X112.804 Y68.114
G1 F1800 X131.174 Y86.485 E88.99066
G0 F3600 X131.173 Y87.05
G1 F1800 X112.319 Y68.196 E89.87749
G0 F3600 X111.834 Y68.276
G1 F1800 X131.173 Y87.616 E90.78716
G0 F3600 X131.173 Y88.181
G1 F1800 X111.349 Y68.357 E91.71962
G0 F3600 X110.865 Y68.438
G1 F1800 X131.173 Y88.747 E92.67487
G0 F3600 X131.173 Y89.313
G1 F1800 X110.38 Y68.519 E93.65294
G0 F3600 X109.895 Y68.599
G1 F1800 X131.173 Y89.878 E94.65381
G0 F3600 X131.173 Y90.444
G1 F1800 X109.409 Y68.68 E95.67752
G0 F3600 X108.925 Y68.761
G1 F1800 X131.173 Y91.01 E96.72402
G0 F3600 X131.173 Y91.575
G1 F1800 X108.44 Y68.842 E97.79331
G0 F3600 X107.955 Y68.923
G1 F1800 X131.173 Y92.14 E98.88539
G0 F3600 X131.173 Y92.706
G1 F1800 X107.47 Y69.003 E100.00031
G0 F3600 X106.985 Y69.085
G1 F1800 X131.173 Y93.272 E101.13802
G0 F3600 X131.173 Y93.838
G1 F1800 X106.5 Y69.165 E102.29856
G0 F3600 X106.015 Y69.246
G1 F1800 X131.173 Y94.403 E103.48189
G0 F3600 X131.173 Y94.969
G1 F1800 X105.531 Y69.327 E104.68801
G0 F3600 X105.046 Y69.408
G1 F1800 X131.173 Y95.535 E105.91695
G0 F3600 X131.173 Y96.1
G1 F1800 X104.561 Y69.488 E107.16869
G0 F3600 X104.076 Y69.569
G1 F1800 X131.173 Y96.666 E108.44325
G0 F3600 X131.172 Y97.231
G1 F1800 X103.591 Y69.65 E109.74058
G0 F3600 X103.106 Y69.731
G1 F1800 X131.172 Y97.797 E111.06072
G0 F3600 X131.172 Y98.362
G1 F1800 X102.621 Y69.811 E112.40367
G0 F3600 X102.136 Y69.892
G1 F1800 X131.172 Y98.928 E113.76943
G0 F3600 X131.172 Y99.494
G1 F1800 X101.652 Y69.973 E115.15799
G0 F3600 X101.167 Y70.054
G1 F1800 X131.172 Y100.059 E116.56933
G0 F3600 X131.172 Y100.625
G1 F1800 X100.682 Y70.135 E118.00349
G0 F3600 X100.197 Y70.216
G1 F1800 X131.172 Y101.191 E119.46046
G0 F3600 X131.172 Y101.756
G1 F1800 X99.712 Y70.297 E120.94021
G0 F3600 X99.227 Y70.377
G1 F1800 X131.171 Y102.321 E122.44276
G0 F3600 X131.171 Y102.887
G1 F1800 X98.742 Y70.458 E123.96812
G0 F3600 X98.258 Y70.539
G1 F1800 X131.171 Y103.453 E125.51627
G0 F3600 X131.171 Y104.018
G1 F1800 X97.773 Y70.62 E127.08721
G0 F3600 X97.287 Y70.7
G1 F1800 X131.171 Y104.584 E128.68101
G0 F3600 X131.171 Y105.15
G1 F1800 X96.803 Y70.782 E130.29758
G0 F3600 X96.318 Y70.862
G1 F1800 X131.171 Y105.715 E131.93695
G0 F3600 X131.171 Y106.281
G1 F1800 X95.833 Y70.943 E133.59915
