;FLAVOR:Marlin
;TIME:12375
;Filament used: 10.5305m
;Layer height: 0.15
;MINX:1.685
;MINY:3.08
;MINZ:0.36
;MAXX:104.989
;MAXY:116.969
;MAXZ:28.935
;Generated with Cura_SteamEngine 5.2.1
M140 S90
M105
M190 S90
M104 S205
M105
M109 S205
M82 ;absolute extrusion mode
G21 ;metric values
 G90 ;absolute positioning
 M82 ;set extruder to absolute mode
 M107 ;start with the fan off
 G28 X0 Y0 ;move X/Y to min endstops
 G28 Z0 ;move Z to min endstops
 G1 Z15.0 F120 ;move the platform down 15mm
 G92 E0 ;zero the extruded length
 G1 F200 E6 ;extrude 6 mm of feed stock
 G92 E0 ;zero the extruded length again
 G1 F120 
 ;Put printing message on LCD screen
 M117 Printing...
G92 E0
G92 E0
G1 F1500 E-6.5
;LAYER_COUNT:185
;LAYER:-7
M107
G0 F7200 X13.627 Y14.662 Z0.36
;TYPE:SUPPORT-INTERFACE
G1 F1500 E0
G1 F1125 X11.893 Y16.874 E0.33654
G1 X11.193 Y17.844 E0.47977
G1 X10.663 Y18.713 E0.60164
G1 X9.22 Y21.28 E0.95424
G1 X8.702 Y22.299 E1.09111
G1 X8.316 Y23.227 E1.21145
G1 X7.133 Y26.394 E1.61625
G1 X6.644 Y27.96 E1.81269
G1 X6.417 Y29.002 E1.94038
G1 X6.074 Y30.939 E2.17592
G1 X1.905 Y59.965 E5.68706
G1 X1.75 Y61.712 E5.89706
G1 X1.69 Y63.415 E6.10109
G1 X1.685 Y64.278 E6.20443
G1 X1.75 Y65.426 E6.34211
G1 X1.911 Y66.581 E6.48174
G1 X2.168 Y68.055 E6.66089
G1 X2.382 Y69.047 E6.7824
G1 X2.645 Y69.982 E6.8987
G1 X3.038 Y71.056 E7.03564
G1 X3.724 Y72.749 E7.25436
G1 X4.066 Y73.523 E7.35568
G1 X4.595 Y74.537 E7.49262
G1 X5.147 Y75.417 E7.61701
G1 X6.114 Y76.847 E7.8237
G1 X6.687 Y77.64 E7.94085
G1 X7.363 Y78.445 E8.06671
G1 X8.164 Y79.271 E8.20448
G1 X9.391 Y80.447 E8.40798
G1 X10.069 Y81.056 E8.5171
G1 X10.927 Y81.728 E8.6476
G1 X11.762 Y82.296 E8.76852
G1 X13.809 Y83.579 E9.05778
G1 X14.792 Y84.141 E9.19336
G1 X15.743 Y84.599 E9.31975
G1 X16.591 Y84.938 E9.4291
G1 X17.671 Y85.285 E9.56492
G1 X18.696 Y85.531 E9.69114
G1 X20.929 Y85.978 E9.96381
G1 X21.784 Y86.124 E10.06767
G1 X22.708 Y86.226 E10.17898
G1 X23.839 Y86.272 E10.31451
G1 X24.751 Y86.268 E10.42371
G1 X25.176 Y86.274 E10.47461
G1 X30.381 Y86.274 E11.09783
G1 X31.291 Y86.254 E11.20682
G1 X31.817 Y86.273 E11.26984
G1 X40.023 Y86.274 E12.2524
G1 X40.561 Y86.264 E12.31683
G1 X42.395 Y86.124 E12.53707
G1 X43.091 Y86.155 E12.62048
G1 X43.883 Y86.237 E12.71582
G1 X44.868 Y86.273 E12.83384
G1 X51.697 Y86.275 E13.65152
G1 X52.625 Y86.36 E13.7631
G1 X53.316 Y86.532 E13.84837
G1 X53.959 Y86.787 E13.93119
G1 X54.544 Y87.108 E14.01109
G1 X55.08 Y87.493 E14.09011
G1 X55.578 Y87.956 E14.17153
G1 X56.019 Y88.487 E14.25417
G1 X56.388 Y89.063 E14.33608
G1 X56.683 Y89.691 E14.41916
G1 X56.89 Y90.328 E14.49936
G1 X57.016 Y90.986 E14.57957
G1 X57.094 Y91.652 E14.65986
G1 X57.336 Y94.661 E15.02131
G1 X57.423 Y96.451 E15.23589
G1 X57.519 Y100.63 E15.73641
G1 X57.601 Y101.854 E15.88329
G1 X57.771 Y102.973 E16.01881
G1 X58.01 Y104.021 E16.14752
G1 X58.293 Y104.961 E16.26506
G1 X58.711 Y106.037 E16.40328
G1 X59.097 Y106.858 E16.51191
G1 X59.612 Y107.788 E16.63919
G1 X60.234 Y108.736 E16.77496
G1 X60.899 Y109.6 E16.9055
G1 X61.667 Y110.445 E17.04223
G1 X62.316 Y111.072 E17.15028
G1 X63.187 Y111.804 E17.28651
G1 X64.064 Y112.431 E17.41559
G1 X65.041 Y113.019 E17.55213
G1 X65.921 Y113.471 E17.67058
G1 X66.906 Y113.889 E17.7987
G1 X67.91 Y114.229 E17.92562
G1 X69.014 Y114.513 E18.06212
G1 X69.896 Y114.676 E18.16951
G1 X70.971 Y114.801 E18.2991
G1 X71.682 Y114.833 E18.38431
G1 X72.667 Y114.963 E18.50328
G1 X73.306 Y115.152 E18.58307
G1 X73.935 Y115.425 E18.66517
G1 X74.346 Y115.63 E18.72016
G1 X75.242 Y116.01 E18.8367
G1 X76.246 Y116.35 E18.96362
G1 X77.35 Y116.634 E19.10011
G1 X78.232 Y116.797 E19.20751
G1 X79.306 Y116.922 E19.33697
G1 X80.439 Y116.969 E19.47275
G1 X85.035 Y116.969 E20.02306
G1 X86.294 Y116.881 E20.17417
G1 X87.266 Y116.737 E20.29183
G1 X88.386 Y116.492 E20.4291
G1 X89.49 Y116.154 E20.56735
G1 X90.477 Y115.77 E20.69416
G1 X91.299 Y115.384 E20.80289
G1 X91.796 Y115.112 E20.87073
G1 X92.655 Y114.731 E20.98325
G1 X93.315 Y114.55 E21.06519
G1 X94.308 Y114.315 E21.18737
G1 X95.234 Y114.02 E21.30374
G1 X96.308 Y113.598 E21.44191
G1 X97.328 Y113.092 E21.57824
G1 X98.118 Y112.633 E21.68764
G1 X99.006 Y112.033 E21.81596
G1 X99.899 Y111.331 E21.95197
G1 X100.678 Y110.612 E22.0789
G1 X101.414 Y109.823 E22.2081
G1 X102.078 Y109.001 E22.33462
G1 X102.686 Y108.126 E22.4622
G1 X103.277 Y107.108 E22.60314
G1 X103.699 Y106.257 E22.71688
G1 X104.079 Y105.327 E22.83717
G1 X104.404 Y104.334 E22.96228
G1 X104.688 Y103.214 E23.10063
G1 X104.854 Y102.233 E23.21976
G1 X104.968 Y101.104 E23.35563
G1 X104.984 Y100.339 E23.44724
G1 X104.989 Y100.073 E23.4791
G1 X104.44 Y63.111 E27.90529
G1 X104.405 Y62.328 E27.99914
G1 X104.303 Y61.322 E28.12021
G1 X104.156 Y60.273 E28.24704
G1 X103.945 Y59.109 E28.38868
G1 X103.65 Y58.015 E28.52435
G1 X103.344 Y57.122 E28.63738
G1 X102.837 Y55.802 E28.80669
G1 X102.45 Y54.901 E28.92411
G1 X101.926 Y53.879 E29.06162
G1 X101.388 Y53.006 E29.18441
G1 X100.721 Y52.005 E29.32844
G1 X99.953 Y50.95 E29.48468
G1 X99.204 Y50.087 E29.62151
G1 X98.452 Y49.335 E29.74885
G1 X98.043 Y48.955 E29.81569
G1 X97.596 Y48.48 E29.89379
G1 X97.186 Y47.924 E29.97651
G1 X96.864 Y47.353 E30.055
G1 X96.604 Y46.705 E30.1386
G1 X96.435 Y46.069 E30.2174
G1 X96.342 Y45.38 E30.30064
G1 X94.84 Y23.746 E32.89726
G1 X94.822 Y22.121 E33.09184
G1 X94.716 Y20.468 E33.29017
G1 X94.566 Y19.506 E33.40675
G1 X94.375 Y18.59 E33.51879
G1 X94.126 Y17.55 E33.64683
G1 X93.857 Y16.699 E33.7537
G1 X93.437 Y15.624 E33.89189
G1 X92.923 Y14.579 E34.03133
G1 X92.484 Y13.818 E34.13653
G1 X91.887 Y12.931 E34.26455
G1 X91.218 Y12.076 E34.39454
G1 X90.459 Y11.243 E34.52947
G1 X89.678 Y10.509 E34.6578
G1 X88.774 Y9.782 E34.7967
G1 X87.988 Y9.235 E34.91136
G1 X86.977 Y8.643 E35.05164
G1 X86.101 Y8.207 E35.16881
G1 X85.113 Y7.8 E35.29675
G1 X84.188 Y7.499 E35.41322
G1 X83.147 Y7.234 E35.54184
G1 X82.031 Y7.035 E35.67758
G1 X80.961 Y6.931 E35.8063
G1 X79.892 Y6.905 E35.93434
G1 X78.829 Y6.957 E36.06177
G1 X77.808 Y7.082 E36.18493
G1 X77.029 Y7.205 E36.27936
G1 X76.054 Y7.395 E36.3983
G1 X75.099 Y7.642 E36.51641
G1 X74.278 Y7.919 E36.62016
G1 X73.711 Y8.075 E36.69057
G1 X73.035 Y8.177 E36.77243
G1 X72.36 Y8.192 E36.85327
G1 X71.684 Y8.123 E36.93464
G1 X42.661 Y3.293 E40.45754
G1 X41.467 Y3.146 E40.60159
G1 X40.447 Y3.101 E40.72384
G1 X37.612 Y3.08 E41.0633
G1 X36.436 Y3.116 E41.20418
G1 X35.329 Y3.237 E41.33751
G1 X32.629 Y3.63 E41.66421
G1 X31.448 Y3.855 E41.80816
G1 X30.365 Y4.149 E41.94253
G1 X27.753 Y4.96 E42.27001
G1 X26.668 Y5.349 E42.40802
G1 X25.8 Y5.73 E42.52152
G1 X23.182 Y6.993 E42.86956
G1 X22.088 Y7.572 E43.01777
G1 X21.245 Y8.107 E43.13732
G1 X18.933 Y9.69 E43.47282
G1 X17.916 Y10.447 E43.62463
G1 X17.07 Y11.193 E43.75968
G1 X15.05 Y13.101 E44.09238
G1 X14.235 Y13.939 E44.23235
G1 X13.627 Y14.662 E44.34546
G0 F7200 X14.383 Y14.383
G1 F1125 X104.061 Y104.061 E59.5309
G0 F7200 X103.477 Y105.74
G1 F1125 X13.372 Y15.634 E74.78874
G0 F7200 X12.377 Y16.903
G1 F1125 X102.729 Y107.254 E90.08822
G0 F7200 X101.846 Y108.634
G1 F1125 X11.431 Y18.219 E105.39846
G0 F7200 X10.595 Y19.646
G1 F1125 X100.821 Y109.872 E120.6767
G0 F7200 X99.676 Y110.99
G1 F1125 X9.782 Y21.095 E135.8988
G0 F7200 X9.013 Y22.589
G1 F1125 X98.388 Y111.965 E151.03302
G0 F7200 X96.978 Y112.817
G1 F1125 X8.374 Y24.213 E166.0366
G0 F7200 X7.759 Y25.861
G1 F1125 X95.415 Y113.517 E180.87965
G0 F7200 X93.685 Y114.049
G1 F1125 X7.189 Y27.553 E195.52627
G0 F7200 X6.755 Y29.383
G1 F1125 X91.969 Y114.596 E209.95573
G0 F7200 X90.448 Y115.339
G1 F1125 X6.423 Y31.313 E224.18401
G0 F7200 X6.139 Y33.292
G1 F1125 X88.794 Y115.947 E238.18023
G0 F7200 X86.96 Y116.376
G1 F1125 X5.854 Y35.27 E251.91415
G0 F7200 X5.57 Y37.248
G1 F1125 X84.89 Y116.568 E265.34564
G0 F7200 X82.627 Y116.568
G1 F1125 X57.467 Y91.409 E269.60597
G0 F7200 X57.673 Y93.877
G1 F1125 X80.36 Y116.564 E273.44763
G0 F7200 X77.852 Y116.319
G1 F1125 X57.815 Y96.282 E276.84055
G0 F7200 X57.872 Y98.601
G1 F1125 X74.553 Y115.283 E279.66528
G0 F7200 X71.427 Y114.419
G1 F1125 X57.94 Y100.932 E281.94907
G0 F7200 X58.317 Y103.572
G1 F1125 X68.785 Y114.04 E283.72165
G0 F7200 X65.022 Y112.539
G1 F1125 X59.82 Y107.338 E284.60244
G0 F7200 X56.446 Y90.457
G0 X55.988 Y89.293
G0 X55.254 Y88.286
G0 X51.956 Y85.897
G1 F1125 X5.286 Y39.227 E292.50521
G0 F7200 X5.002 Y41.205
G1 F1125 X49.668 Y85.872 E300.06872
G0 F7200 X47.405 Y85.871
G1 F1125 X4.717 Y43.184 E307.29712
G0 F7200 X4.433 Y45.162
G1 F1125 X45.142 Y85.871 E314.19049
G0 F7200 X42.743 Y85.735
G1 F1125 X4.15 Y47.142 E320.72556
G0 F7200 X3.865 Y49.12
G1 F1125 X40.603 Y85.858 E326.94651
G0 F7200 X38.354 Y85.872
G1 F1125 X3.581 Y51.099 E332.83473
G0 F7200 X3.297 Y53.077
G1 F1125 X36.092 Y85.872 E338.388
G0 F7200 X33.829 Y85.872
G1 F1125 X3.012 Y55.056 E343.60625
G0 F7200 X2.728 Y57.034
G1 F1125 X31.556 Y85.861 E348.4877
G0 F7200 X29.304 Y85.873
G1 F1125 X2.444 Y59.013 E353.03598
G0 F7200 X2.209 Y61.04
G1 F1125 X27.041 Y85.873 E357.24094
G0 F7200 X24.773 Y85.867
G1 F1125 X2.097 Y63.192 E361.08065
G0 F7200 X2.167 Y65.524
G1 F1125 X22.435 Y85.792 E364.51269
G0 F7200 X19.704 Y85.324
G1 F1125 X2.616 Y68.235 E367.40634
G0 F7200 X3.67 Y71.552
G1 F1125 X16.644 Y84.526 E369.60327
G0 F7200 X11.463 Y81.608
G1 F1125 X6.379 Y76.524 E370.46415
G0 F7200 X15.494 Y13.231
G1 F1125 X104.454 Y102.191 E385.52801
G0 F7200 X104.588 Y100.063
G1 F1125 X16.658 Y12.132 E400.41755
G0 F7200 X17.837 Y11.049
G1 F1125 X104.554 Y97.766 E415.10159
G0 F7200 X104.52 Y95.47
G1 F1125 X19.108 Y10.057 E429.56475
G0 F7200 X20.45 Y9.136
G1 F1125 X104.486 Y93.172 E443.79481
G0 F7200 X104.452 Y90.875
G1 F1125 X21.802 Y8.226 E457.79009
G0 F7200 X23.248 Y7.409
G1 F1125 X104.418 Y88.579 E471.53485
G0 F7200 X104.384 Y86.282
G1 F1125 X24.771 Y6.669 E485.01596
G0 F7200 X26.307 Y5.943
G1 F1125 X104.349 Y83.985 E498.23104
G0 F7200 X104.315 Y81.688
G1 F1125 X27.946 Y5.318 E511.16291
G0 F7200 X29.673 Y4.782
G1 F1125 X104.281 Y79.391 E523.79659
G0 F7200 X104.247 Y77.094
G1 F1125 X31.428 Y4.275 E536.12725
G0 F7200 X33.345 Y3.93
G1 F1125 X104.213 Y74.797 E548.12745
G0 F7200 X104.179 Y72.501
G1 F1125 X35.321 Y3.643 E559.78738
G0 F7200 X37.427 Y3.486
G1 F1125 X104.144 Y70.203 E571.08477
G0 F7200 X104.11 Y67.906
G1 F1125 X39.699 Y3.495 E581.99167
G0 F7200 X42.092 Y3.626
G1 F1125 X104.076 Y65.61 E592.48761
G0 F7200 X104.042 Y63.312
G1 F1125 X44.781 Y4.051 E602.52245
G0 F7200 X47.495 Y4.503
G1 F1125 X103.831 Y60.839 E612.06199
G0 F7200 X103.204 Y57.949
G1 F1125 X50.21 Y4.955 E621.03562
G0 F7200 X52.924 Y5.407
G1 F1125 X101.549 Y54.032 E629.26944
G0 F7200 X96.085 Y46.305
G1 F1125 X55.639 Y5.859 E636.11828
G0 F7200 X58.353 Y6.31
G1 F1125 X95.829 Y43.786 E642.4642
G0 F7200 X95.66 Y41.355
G1 F1125 X61.067 Y6.762 E648.32194
G0 F7200 X63.782 Y7.213
G1 F1125 X95.492 Y38.924 E653.69157
G0 F7200 X95.323 Y36.492
G1 F1125 X66.497 Y7.665 E658.57285
G0 F7200 X69.211 Y8.117
G1 F1125 X95.154 Y34.06 E662.96585
G0 F7200 X94.986 Y31.629
G1 F1125 X71.904 Y8.547 E666.87439
G0 F7200 X74.022 Y8.403
G1 F1125 X94.817 Y29.197 E670.39559
G0 F7200 X94.648 Y26.766
G1 F1125 X75.765 Y7.882 E673.59319
G0 F7200 X77.655 Y7.51
G1 F1125 X94.48 Y24.335 E676.44221
G0 F7200 X94.412 Y22.005
G1 F1125 X79.722 Y7.314 E678.9298
G0 F7200 X82.13 Y7.459
G1 F1125 X94.151 Y19.48 E680.96535
G0 F7200 X93.296 Y16.363
G1 F1125 X85.202 Y8.269 E682.33593
G0 F600 X85.202 Y8.269 Z0.585
G0 F7200 X20.81 Y8.888
;TIME_ELAPSED:310.898757
;LAYER:-6
;TYPE:SUPPORT
G1 F1125 X11.356 Y18.342 E683.33648
G0 F7200 X19.163 Y10.014
G1 F1125 X18.169 Y10.755 E683.42926
G1 X17.348 Y11.479 E683.51118
G1 X15.401 Y13.315 E683.71145
G1 X14.54 Y14.196 E683.80363
G1 X13.928 Y14.924 E683.87481
G1 X12.203 Y17.126 E684.08414
G1 X11.53 Y18.055 E684.16998
G1 X11.006 Y18.915 E684.24535
G1 X9.567 Y21.475 E684.46512
G1 X9.496 Y21.616 E684.47693
G1 X24.139 Y6.972 E686.0267
G1 X25.957 Y6.095 E686.17775
G1 X26.802 Y5.724 E686.24682
G1 X8.409 Y24.117 E688.1934
G1 X7.572 Y26.368 E688.37313
G1 X28.928 Y5.012 E690.6333
G1 X30.462 Y4.535 E690.75352
G1 X30.954 Y4.401 E690.79168
G1 X6.955 Y28.399 E693.33151
G1 X6.811 Y29.064 E693.38243
G1 X6.619 Y30.15 E693.46496
G1 X32.753 Y4.015 E696.23086
G1 X34.409 Y3.774 E696.35609
G1 X6.347 Y31.836 E699.32598
G1 X6.11 Y33.487 E699.4508
G1 X36.063 Y3.533 E702.62087
G1 X37.53 Y3.481 E702.73072
G1 X5.873 Y35.138 E706.08108
G1 X5.636 Y36.79 E706.20598
G1 X38.937 Y3.488 E709.73038
G1 X40.341 Y3.498 E709.83545
G1 X5.399 Y38.441 E713.53352
G1 X5.162 Y40.092 E713.65834
G1 X41.681 Y3.573 E717.52326
G1 X42.939 Y3.729 E717.61812
G1 X4.924 Y41.744 E721.64137
G1 X4.688 Y43.395 E721.76618
G1 X44.14 Y3.942 E725.94156
G1 X45.352 Y4.145 E726.03352
G1 X4.451 Y45.046 E730.3622
G1 X4.213 Y46.698 E730.48711
G1 X46.565 Y4.346 E734.96935
G1 X47.777 Y4.548 E735.0613
G1 X3.976 Y48.349 E739.6969
G1 X3.739 Y50 E739.82172
G1 X48.989 Y4.75 E744.61067
G1 X50.201 Y4.952 E744.70262
G1 X3.502 Y51.652 E749.64497
G1 X3.265 Y53.303 E749.76979
G1 X51.414 Y5.154 E754.86555
G1 X52.627 Y5.355 E754.95756
G1 X3.028 Y54.954 E760.20678
G1 X2.79 Y56.606 E760.33168
G1 X53.839 Y5.557 E765.73435
G1 X55.051 Y5.759 E765.82631
G1 X2.554 Y58.257 E771.38228
G1 X2.317 Y59.908 E771.5071
G1 X56.263 Y5.961 E777.21642
G1 X57.476 Y6.163 E777.30845
G1 X2.161 Y61.477 E783.16255
G1 X2.108 Y62.945 E783.27248
G1 X58.688 Y6.365 E789.26052
G1 X59.901 Y6.566 E789.35253
G1 X2.089 Y64.378 E795.47096
G1 X2.146 Y65.381 E795.54614
G1 X2.189 Y65.693 E795.56971
G1 X61.113 Y6.769 E801.80582
G1 X62.325 Y6.97 E801.89776
G1 X2.376 Y66.919 E808.24235
G1 X2.582 Y68.128 E808.33413
G1 X63.538 Y7.172 E814.78529
G1 X64.75 Y7.374 E814.87724
G1 X2.858 Y69.266 E821.42746
G1 X3.026 Y69.859 E821.47359
G1 X3.201 Y70.338 E821.51175
G1 X65.963 Y7.575 E828.1541
G1 X67.175 Y7.778 E828.24606
G1 X3.592 Y71.361 E834.97525
G1 X4 Y72.367 E835.05649
G1 X68.387 Y7.979 E841.87082
G1 X69.599 Y8.181 E841.96277
G1 X4.423 Y73.358 E848.8606
G1 X4.914 Y74.281 E848.93884
G1 X70.812 Y8.383 E855.91303
G1 X71.642 Y8.522 E855.97601
G1 X72.047 Y8.562 E856.00646
G1 X5.453 Y75.156 E863.05431
G1 X6.023 Y76.001 E863.13059
G1 X73.515 Y8.508 E870.27353
G1 X73.802 Y8.465 E870.29525
G1 X74.406 Y8.297 E870.34216
G1 X75.306 Y7.999 E870.41311
G1 X75.486 Y7.952 E870.42703
G1 X6.6 Y76.837 E877.7174
G1 X7.194 Y77.658 E877.79323
G1 X77.284 Y7.568 E885.21108
G1 X77.855 Y7.477 E885.25435
G1 X78.918 Y7.348 E885.33448
G1 X7.871 Y78.395 E892.85361
G1 X8.568 Y79.112 E892.92844
G1 X80.363 Y7.317 E900.52672
G1 X81.023 Y7.338 E900.57614
G1 X81.692 Y7.402 E900.62643
G1 X9.294 Y79.8 E908.28854
G1 X10.019 Y80.49 E908.36344
G1 X82.919 Y7.589 E916.07872
G1 X84.05 Y7.873 E916.16599
G1 X10.785 Y81.138 E923.91985
G1 X11.622 Y81.715 E923.99593
G1 X85.104 Y8.233 E931.77276
G1 X86.11 Y8.642 E931.85403
G1 X12.479 Y82.273 E939.64663
G1 X13.348 Y82.818 E939.72339
G1 X87.03 Y9.135 E947.52144
G1 X87.922 Y9.657 E947.59878
G1 X14.222 Y83.357 E955.39868
G1 X15.119 Y83.875 E955.47619
G1 X88.733 Y10.261 E963.26699
G1 X89.517 Y10.891 E963.34226
G1 X16.098 Y84.31 E971.11242
G1 X16.711 Y84.555 E971.16182
G1 X17.131 Y84.692 E971.19488
G1 X90.234 Y11.588 E978.93165
G1 X90.907 Y12.329 E979.00656
G1 X18.228 Y85.009 E986.69846
G1 X18.791 Y85.142 E986.74175
G1 X19.389 Y85.262 E986.7874
G1 X91.529 Y13.122 E994.4222
G1 X92.1 Y13.965 E994.49839
G1 X20.557 Y85.508 E1002.07001
G1 X21.764 Y85.715 E1002.16165
G1 X92.621 Y14.858 E1009.66067
G1 X93.082 Y15.812 E1009.73996
G1 X23.053 Y85.84 E1017.15129
G1 X23.859 Y85.872 E1017.21166
G1 X24.439 Y85.869 E1017.25506
G1 X93.479 Y16.829 E1024.56178
G1 X93.818 Y17.904 E1024.64614
G1 X25.849 Y85.873 E1031.83951
G1 X27.263 Y85.873 E1031.94532
G1 X94.066 Y19.07 E1039.01529
G1 X94.173 Y19.591 E1039.05509
G1 X94.279 Y20.271 E1039.1066
G1 X28.678 Y85.873 E1046.04941
G1 X30.092 Y85.873 E1046.15522
G1 X94.386 Y21.579 E1052.95966
G1 X94.421 Y22.126 E1053.00068
G1 X94.429 Y22.949 E1053.06227
G1 X31.506 Y85.872 E1059.7216
G1 X32.92 Y85.873 E1059.82742
G1 X94.478 Y24.315 E1066.3423
G1 X94.57 Y25.637 E1066.44147
G1 X34.334 Y85.873 E1072.81643
G1 X35.749 Y85.873 E1072.92232
G1 X94.662 Y26.959 E1079.15732
G1 X94.754 Y28.282 E1079.25657
G1 X37.163 Y85.873 E1085.3516
G1 X38.577 Y85.873 E1085.45742
