;FLAVOR:Marlin
;TIME:785
;Filament used: 1.0667m
;Layer height: 0.25
;MINX:7.709
;MINY:6.084
;MINZ:0.36
;MAXX:49.608
;MAXY:47.982
;MAXZ:11.435
;Generated with Cura_SteamEngine 5.2.1
M140 S110
M105
M190 S110
M104 S235
M105
M109 S235
M82 ;absolute extrusion mode
G21 ;metric values
 G90 ;absolute positioning
 M82 ;set extruder to absolute mode
 M107 ;start with the fan off
 G28 X0 Y0 ;move X/Y to min endstops
 G28 Z0 ;move Z to min endstops
 G1 Z15.0 F80 ;move the platform down 15mm
 G92 E0 ;zero the extruded length
 G1 F200 E6 ;extrude 6 mm of feed stock
 G92 E0 ;zero the extruded length again
 G1 F80 
 ;Put printing message on LCD screen
 M117 Printing...
G92 E0
G92 E0
G1 F1500 E-6.5
;LAYER_COUNT:40
;LAYER:-6
M107
G0 F4800 X10.117 Y12.649 Z0.36
;TYPE:SUPPORT-INTERFACE
G1 F1500 E0
G1 F1575 X9.538 Y13.613 E0.13465
G1 X9.086 Y14.493 E0.2531
G1 X8.668 Y15.478 E0.38122
G1 X8.328 Y16.482 E0.50814
G1 X8.044 Y17.586 E0.64464
G1 X7.881 Y18.468 E0.75203
G1 X7.756 Y19.542 E0.8815
G1 X7.709 Y20.692 E1.01931
G1 X7.709 Y33.729 E2.58031
G1 X7.797 Y34.988 E2.73143
G1 X7.941 Y35.96 E2.84908
G1 X8.186 Y37.08 E2.98636
G1 X8.524 Y38.184 E3.1246
G1 X8.901 Y39.155 E3.24932
G1 X9.294 Y39.992 E3.36004
G1 X9.847 Y40.99 E3.49666
G1 X10.438 Y41.882 E3.62478
G1 X11.097 Y42.737 E3.75403
G1 X11.862 Y43.579 E3.89025
G1 X12.513 Y44.206 E3.99847
G1 X13.385 Y44.939 E4.13487
G1 X14.267 Y45.568 E4.26458
G1 X15.239 Y46.153 E4.40042
G1 X16.106 Y46.6 E4.51721
G1 X17.014 Y46.986 E4.63535
G1 X18.099 Y47.361 E4.77281
G1 X19.211 Y47.647 E4.91029
G1 X20.176 Y47.826 E5.0278
G1 X21.168 Y47.935 E5.1473
G1 X22.298 Y47.982 E5.28272
G1 X35.354 Y47.982 E6.84599
G1 X36.614 Y47.894 E6.99723
G1 X37.583 Y47.75 E7.11453
G1 X38.628 Y47.522 E7.2426
G1 X39.723 Y47.201 E7.37923
G1 X40.796 Y46.783 E7.51711
G1 X41.617 Y46.397 E7.62573
G1 X42.615 Y45.844 E7.76235
G1 X43.507 Y45.254 E7.89041
G1 X44.349 Y44.604 E8.01777
G1 X45.204 Y43.827 E8.1561
G1 X45.831 Y43.176 E8.26433
G1 X46.562 Y42.306 E8.40039
G1 X47.191 Y41.428 E8.52971
G1 X47.7 Y40.592 E8.6469
G1 X48.223 Y39.588 E8.78245
G1 X48.648 Y38.592 E8.91211
G1 X48.986 Y37.595 E9.03816
G1 X49.272 Y36.48 E9.17599
G1 X49.45 Y35.514 E9.2936
G1 X49.571 Y34.376 E9.43063
G1 X49.608 Y33.375 E9.55057
G1 X49.608 Y20.852 E11.05003
G1 X49.6 Y20.235 E11.12391
G1 X49.519 Y19.075 E11.26315
G1 X49.375 Y18.106 E11.38044
G1 X49.129 Y16.98 E11.51845
G1 X48.824 Y15.962 E11.64569
G1 X48.408 Y14.895 E11.78282
G1 X48.022 Y14.074 E11.89144
G1 X47.507 Y13.144 E12.01873
G1 X46.886 Y12.198 E12.15423
G1 X46.216 Y11.327 E12.28581
G1 X45.452 Y10.487 E12.42176
G1 X44.803 Y9.86 E12.52981
G1 X43.934 Y9.13 E12.66571
G1 X43.056 Y8.501 E12.79503
G1 X42.078 Y7.913 E12.93167
G1 X41.198 Y7.461 E13.05012
G1 X40.213 Y7.043 E13.17824
G1 X39.209 Y6.703 E13.30516
G1 X38.105 Y6.419 E13.44166
G1 X37.223 Y6.256 E13.54905
G1 X36.149 Y6.131 E13.67852
G1 X35.017 Y6.084 E13.81417
G1 X21.962 Y6.084 E15.37733
G1 X20.705 Y6.172 E15.52821
G1 X19.73 Y6.316 E15.64622
G1 X18.605 Y6.562 E15.78411
G1 X17.597 Y6.865 E15.91014
G1 X16.52 Y7.283 E16.04847
G1 X15.699 Y7.669 E16.15709
G1 X14.769 Y8.184 E16.28438
G1 X13.821 Y8.807 E16.42021
G1 X12.952 Y9.475 E16.55145
G1 X12.112 Y10.239 E16.68741
G1 X11.485 Y10.888 E16.79546
G1 X10.755 Y11.757 E16.93135
G1 X10.117 Y12.649 E17.06266
G0 F4800 X10.515 Y12.778
G1 F1575 X42.907 Y45.169 E22.54761
G0 F4800 X44.198 Y44.198
G1 F1575 X11.495 Y11.495 E28.08531
G0 F4800 X12.599 Y10.336
G1 F1575 X45.355 Y43.092 E33.63198
G0 F4800 X46.387 Y41.862
G1 F1575 X13.829 Y9.304 E39.14512
G0 F4800 X15.194 Y8.406
G1 F1575 X47.287 Y40.498 E44.57944
G0 F4800 X48.042 Y38.991
G1 F1575 X16.695 Y7.644 E49.88752
G0 F4800 X18.365 Y7.051
G1 F1575 X48.641 Y37.327 E55.01424
G0 F4800 X49.05 Y35.474
G1 F1575 X20.223 Y6.647 E59.8956
G0 F4800 X22.323 Y6.484
G1 F1575 X49.207 Y33.368 E64.44795
G0 F4800 X49.207 Y31.105
G1 F1575 X24.586 Y6.484 E68.6171
G0 F4800 X26.848 Y6.484
G1 F1575 X49.207 Y28.842 E72.40313
G0 F4800 X49.207 Y26.58
G1 F1575 X29.111 Y6.484 E75.80604
G0 F4800 X31.374 Y6.484
G1 F1575 X49.207 Y24.317 E78.82576
G0 F4800 X49.207 Y22.054
G1 F1575 X33.637 Y6.484 E81.46227
G0 F4800 X35.938 Y6.523
G1 F1575 X49.164 Y19.748 E83.70179
G0 F4800 X48.732 Y17.054
G1 F1575 X38.651 Y6.972 E85.40892
G0 F4800 X42.69 Y8.749
G1 F1575 X46.918 Y12.977 E86.12486
G0 F4800 X41.485 Y46.011
G1 F1575 X9.681 Y14.207 E91.51032
G0 F4800 X8.988 Y15.776
G1 F1575 X39.909 Y46.697 E96.74627
G0 F4800 X38.161 Y47.212
G1 F1575 X8.472 Y17.523 E101.77359
G0 F4800 X8.165 Y19.479
G1 F1575 X36.206 Y47.52 E106.52186
G0 F4800 X34.004 Y47.581
G1 F1575 X8.108 Y21.684 E110.90699
G0 F4800 X8.108 Y23.947
G1 F1575 X31.742 Y47.581 E114.909
G0 F4800 X29.479 Y47.581
G1 F1575 X8.108 Y26.21 E118.52782
G0 F4800 X8.107 Y28.472
G1 F1575 X27.216 Y47.581 E121.7636
G0 F4800 X24.953 Y47.581
G1 F1575 X8.107 Y30.735 E124.61619
G0 F4800 X8.107 Y32.997
G1 F1575 X22.691 Y47.581 E127.08574
G0 F4800 X20.281 Y47.434
G1 F1575 X8.265 Y35.418 E129.12044
G0 F4800 X9.071 Y38.487
G1 F1575 X17.215 Y46.631 E130.49949
G0 F600 X17.215 Y46.631 Z0.735
G0 F4800 X42.478 Y45.454
;TIME_ELAPSED:45.906139
;LAYER:-5
;TYPE:SUPPORT
G1 F1575 X43.284 Y44.921 E130.62001
G1 X44.15 Y44.245 E130.75704
G1 X44.93 Y43.535 E130.88859
G1 X45.526 Y42.918 E130.99559
G1 X46.191 Y42.126 E131.12457
G1 X46.852 Y41.213 E131.26516
G1 X47.435 Y40.245 E131.4061
G1 X41.895 Y45.785 E132.38329
G1 X41.509 Y46.005 E132.4387
G1 X40.646 Y46.412 E132.55771
G1 X39.586 Y46.823 E132.69951
G1 X39.383 Y46.883 E132.72591
G1 X48.54 Y37.726 E134.3411
G1 X48.881 Y36.398 E134.51211
G1 X48.977 Y35.875 E134.57843
G1 X37.497 Y47.355 E136.60337
G1 X36.58 Y47.494 E136.71905
G1 X35.896 Y47.542 E136.80458
G1 X49.173 Y34.264 E139.14657
G1 X49.206 Y33.354 E139.26015
G1 X49.206 Y32.817 E139.32713
G1 X34.442 Y47.581 E141.93133
G1 X33.028 Y47.581 E142.10769
G1 X49.206 Y31.403 E144.9613
G1 X49.206 Y29.989 E145.13766
G1 X31.614 Y47.581 E148.24069
G1 X30.199 Y47.581 E148.41718
G1 X49.206 Y28.574 E151.76979
G1 X49.206 Y27.16 E151.94615
G1 X28.785 Y47.581 E155.54818
G1 X27.371 Y47.581 E155.72455
G1 X49.206 Y25.746 E159.57599
G1 X49.206 Y24.332 E159.75235
G1 X25.957 Y47.581 E163.85321
G1 X24.542 Y47.581 E164.02969
G1 X49.206 Y22.918 E168.38005
G1 X49.206 Y21.503 E168.55654
G1 X23.128 Y47.581 E173.1564
G1 X22.32 Y47.581 E173.25718
G1 X21.738 Y47.557 E173.32983
G1 X49.188 Y20.107 E178.17169
G1 X49.119 Y19.109 E178.29647
G1 X49.073 Y18.809 E178.33432
G1 X20.418 Y47.463 E183.38864
G1 X19.227 Y47.24 E183.53977
G1 X48.86 Y17.607 E188.76669
G1 X48.765 Y17.179 E188.82138
G1 X48.561 Y16.491 E188.91088
G1 X18.111 Y46.942 E194.282
G1 X17.055 Y46.584 E194.42107
G1 X48.192 Y15.446 E199.91337
G1 X48.037 Y15.045 E199.96699
G1 X47.762 Y14.462 E200.04739
G1 X16.085 Y46.139 E205.63485
G1 X15.152 Y45.659 E205.76571
G1 X47.267 Y13.543 E211.43052
G1 X47.08 Y13.212 E211.47793
G1 X46.722 Y12.674 E211.55854
G1 X14.298 Y45.098 E217.27776
G1 X13.477 Y44.504 E217.40415
G1 X46.12 Y11.862 E223.16191
G1 X45.87 Y11.542 E223.21256
G1 X45.468 Y11.1 E223.28708
G1 X12.718 Y43.849 E229.06371
G1 X11.998 Y43.155 E229.18844
G1 X44.784 Y10.369 E234.97151
G1 X44.017 Y9.722 E235.09667
G1 X11.344 Y42.395 E240.85981
G1 X10.724 Y41.601 E240.98546
G1 X43.215 Y9.11 E246.7165
G1 X42.837 Y8.836 E246.77473
G1 X42.362 Y8.548 E246.84401
G1 X10.171 Y40.74 E252.52222
G1 X9.662 Y39.834 E252.65183
G1 X41.455 Y8.041 E258.25975
G1 X41.027 Y7.822 E258.31972
G1 X40.487 Y7.595 E258.39278
G1 X9.216 Y38.866 E263.90862
G1 X8.822 Y37.846 E264.045
G1 X39.46 Y7.208 E269.4492
G1 X39.086 Y7.083 E269.49838
G1 X38.359 Y6.895 E269.59204
G1 X8.517 Y36.737 E274.85582
G1 X8.358 Y36.024 E274.94694
G1 X8.286 Y35.554 E275.00624
G1 X37.186 Y6.654 E280.10387
G1 X35.92 Y6.506 E280.26285
G1 X8.148 Y34.277 E285.16142
G1 X8.107 Y33.696 E285.23407
G1 X8.108 Y32.903 E285.33297
G1 X34.528 Y6.483 E289.99316
G1 X33.114 Y6.483 E290.16952
G1 X8.108 Y31.489 E294.58029
G1 X8.108 Y30.075 E294.75665
G1 X31.7 Y6.483 E298.91801
G1 X30.286 Y6.483 E299.09437
G1 X8.108 Y28.661 E303.00632
G1 X8.108 Y27.246 E303.1828
G1 X28.871 Y6.483 E306.84516
G1 X27.457 Y6.483 E307.02152
G1 X8.108 Y25.832 E310.43446
G1 X8.108 Y24.418 E310.61082
G1 X26.043 Y6.483 E313.77435
G1 X24.629 Y6.483 E313.95071
G1 X8.108 Y23.004 E316.86483
G1 X8.108 Y21.59 E317.04119
G1 X23.215 Y6.483 E319.70589
G1 X21.8 Y6.483 E319.88238
G1 X8.128 Y20.155 E322.29396
G1 X8.144 Y19.718 E322.3485
G1 X8.261 Y18.608 E322.48771
G1 X20.221 Y6.648 E324.59732
G1 X19.645 Y6.736 E324.67
G1 X18.451 Y7.004 E324.82262
G1 X8.657 Y16.798 E326.55017
G1 X8.703 Y16.618 E326.57334
G1 X9.02 Y15.681 E326.69672
G1 X9.446 Y14.663 E326.83436
G1 X9.898 Y13.783 E326.95775
G1 X10.462 Y12.852 E327.09351
G1 X11.124 Y11.938 E327.23427
G1 X11.79 Y11.145 E327.36344
G1 X12.384 Y10.53 E327.47008
G1 X13.166 Y9.818 E327.60199
G1 X14.031 Y9.143 E327.73883
G1 X14.837 Y8.609 E327.85942
G1 X15.81 Y8.056 E327.99901
G1 X16.139 Y7.901 E328.04437
G1 X9.52 Y14.521 E329.21198
G0 F600 X9.52 Y14.521 Z0.985
G0 F4800 X12.868 Y43.981
;TIME_ELAPSED:107.181435
;LAYER:-4
;TYPE:SUPPORT-INTERFACE
G1 F2100 X11.778 Y42.89 E329.2761
G1 X12.154 Y43.305 E329.29938
G1 X12.771 Y43.899 E329.33498
G1 X13.563 Y44.566 E329.37803
G1 X14.478 Y45.228 E329.42499
G1 X14.992 Y45.539 E329.44996
G1 X10.139 Y40.686 E329.7353
G1 X9.68 Y39.875 E329.77405
G1 X9.49 Y39.472 E329.79257
G1 X16.232 Y46.213 E330.18894
G1 X17.213 Y46.629 E330.23324
G1 X9.068 Y38.484 E330.71214
G1 X8.865 Y37.956 E330.73566
G1 X8.764 Y37.614 E330.75048
G1 X18.099 Y46.949 E331.29934
G1 X18.86 Y47.144 E331.33201
G1 X8.534 Y36.818 E331.93913
G1 X8.372 Y36.091 E331.9701
G1 X19.591 Y47.31 E332.62974
G1 X20.285 Y47.438 E332.65908
G1 X8.265 Y35.418 E333.36581
G1 X8.181 Y34.769 E333.39301
G1 X20.914 Y47.502 E334.14166
G1 X21.527 Y47.548 E334.16722
G1 X8.139 Y34.161 E334.95436
G1 X8.107 Y33.563 E334.97925
G1 X22.116 Y47.572 E335.80293
G1 X22.691 Y47.581 E335.82684
G1 X8.107 Y32.997 E336.68432
G1 X8.107 Y32.432 E336.70781
G1 X23.256 Y47.581 E337.59851
G1 X23.822 Y47.581 E337.62204
G1 X8.107 Y31.866 E338.54603
G1 X8.107 Y31.3 E338.56956
G1 X24.388 Y47.581 E339.52682
G1 X24.953 Y47.581 E339.55031
G1 X8.107 Y30.735 E340.54079
G1 X8.107 Y30.169 E340.56432
G1 X25.519 Y47.581 E341.58808
G1 X26.085 Y47.581 E341.61161
G1 X8.107 Y29.603 E342.66865
G1 X8.107 Y29.038 E342.69214
G1 X26.65 Y47.581 E343.7824
G1 X27.216 Y47.581 E343.80593
G1 X8.107 Y28.472 E344.92946
G1 X8.107 Y27.906 E344.95299
G1 X27.782 Y47.581 E346.10981
G1 X28.347 Y47.581 E346.1333
G1 X8.107 Y27.34 E347.32336
G1 X8.107 Y26.775 E347.34685
G1 X28.913 Y47.581 E348.57017
G1 X29.479 Y47.581 E348.5937
G1 X8.107 Y26.209 E349.85029
G1 X8.107 Y25.643 E349.87382
G1 X30.044 Y47.581 E351.16366
G1 X30.61 Y47.581 E351.18719
G1 X8.107 Y25.078 E352.51028
G1 X8.107 Y24.512 E352.53381
G1 X31.176 Y47.581 E353.89018
G1 X31.742 Y47.581 E353.91372
G1 X8.107 Y23.946 E355.30336
G1 X8.107 Y23.381 E355.32685
G1 X32.307 Y47.581 E356.74972
G1 X32.873 Y47.581 E356.77325
G1 X8.107 Y22.815 E358.2294
G1 X8.107 Y22.249 E358.25293
G1 X33.439 Y47.581 E359.74235
G1 X34.004 Y47.581 E359.76584
G1 X8.107 Y21.684 E361.28849
G1 X8.107 Y21.118 E361.31202
G1 X34.57 Y47.581 E362.86794
G1 X35.136 Y47.581 E362.89147
G1 X8.113 Y20.558 E364.48032
G1 X8.133 Y20.012 E364.50304
G1 X35.677 Y47.557 E366.12255
G1 X36.206 Y47.52 E366.1446
G1 X8.169 Y19.482 E367.79309
G1 X8.222 Y18.97 E367.81449
G1 X36.724 Y47.472 E369.4903
G1 X37.215 Y47.397 E369.51095
G1 X8.285 Y18.468 E371.2119
G1 X8.373 Y17.99 E371.2321
G1 X37.703 Y47.32 E372.95659
G1 X38.166 Y47.217 E372.97631
G1 X8.47 Y17.521 E374.72233
G1 X8.586 Y17.071 E374.74165
G1 X38.622 Y47.107 E376.50765
G1 X39.059 Y46.978 E376.52659
G1 X8.701 Y16.621 E378.3115
G1 X8.844 Y16.198 E378.33006
G1 X39.495 Y46.849 E380.13222
G1 X39.909 Y46.697 E380.15056
G1 X8.988 Y15.776 E381.96859
G1 X9.149 Y15.372 E381.98667
G1 X40.317 Y46.539 E383.8192
G1 X40.72 Y46.377 E383.83726
G1 X9.316 Y14.973 E385.6837
G1 X9.489 Y14.58 E385.70155
G1 X41.104 Y46.195 E387.56039
G1 X41.488 Y46.014 E387.57804
G1 X9.68 Y14.206 E389.44823
G1 X9.873 Y13.833 E389.46569
G1 X41.85 Y45.81 E391.34581
G1 X42.211 Y45.605 E391.36307
G1 X10.083 Y13.477 E393.25208
G1 X10.296 Y13.125 E393.26918
G1 X42.567 Y45.395 E395.16656
G1 X42.907 Y45.169 E395.18354
G1 X10.515 Y12.778 E397.08803
G1 X10.752 Y12.45 E397.10486
G1 X43.248 Y44.945 E399.01547
G1 X43.567 Y44.699 E399.03221
G1 X10.99 Y12.121 E400.94765
G1 X11.237 Y11.803 E400.96439
G1 X43.885 Y44.451 E402.88396
G1 X44.199 Y44.199 E402.9007
G1 X11.495 Y11.495 E404.82357
G1 X11.753 Y11.187 E404.84028
G1 X44.496 Y43.93 E406.76544
G1 X44.792 Y43.661 E406.78207
G1 X12.028 Y10.897 E408.70847
G1 X12.306 Y10.609 E408.72511
G1 X45.079 Y43.382 E410.65204
G1 X45.357 Y43.094 E410.66868
G1 X12.598 Y10.335 E412.59478
G1 X12.894 Y10.066 E412.61141
G1 X45.627 Y42.799 E414.53599
G1 X45.885 Y42.491 E414.55269
G1 X13.193 Y9.799 E416.47485
G1 X13.51 Y9.55 E416.49161
G1 X46.143 Y42.183 E418.41031
G1 X46.384 Y41.859 E418.4271
G1 X13.828 Y9.302 E420.34129
G1 X14.154 Y9.062 E420.35812
G1 X46.622 Y41.531 E422.26715
G1 X46.859 Y41.203 E422.28397
G1 X14.494 Y8.837 E424.18694
G1 X14.834 Y8.611 E424.20391
G1 X47.072 Y40.85 E426.09941
G1 X47.286 Y40.498 E426.11654
G1 X15.195 Y8.406 E428.0034
G1 X15.555 Y8.201 E428.02062
G1 X47.491 Y40.137 E429.89833
G1 X47.683 Y39.763 E429.91581
G1 X15.924 Y8.004 E431.78312
G1 X16.308 Y7.823 E431.80077
G1 X47.873 Y39.388 E433.65667
G1 X48.042 Y38.991 E433.67461
G1 X16.694 Y7.643 E435.51775
G1 X17.102 Y7.485 E435.53594
G1 X48.211 Y38.594 E437.36503
G1 X48.363 Y38.18 E437.38337
G1 X17.51 Y7.327 E439.19741
G1 X17.93 Y7.182 E439.21588
G1 X48.506 Y37.758 E441.01363
G1 X48.642 Y37.328 E441.03238
G1 X18.367 Y7.054 E442.8124
G1 X18.804 Y6.925 E442.83135
G1 X48.758 Y36.879 E444.59253
G1 X48.873 Y36.428 E444.61188
G1 X19.267 Y6.822 E446.3526
G1 X19.734 Y6.723 E446.37245
G1 X48.964 Y35.953 E448.09106
G1 X49.051 Y35.475 E448.11126
G1 X20.225 Y6.648 E449.80614
G1 X20.716 Y6.574 E449.82679
G1 X49.106 Y34.964 E451.49601
G1 X49.16 Y34.452 E451.51742
G1 X21.243 Y6.535 E453.15883
G1 X21.772 Y6.499 E453.18087
G1 X49.187 Y33.913 E454.79274
G1 X49.206 Y33.367 E454.81545
G1 X22.323 Y6.484 E456.39607
G1 X22.889 Y6.484 E456.4196
G1 X49.206 Y32.801 E457.96694
G1 X49.206 Y32.236 E457.99043
G1 X23.454 Y6.484 E459.50455
G1 X24.02 Y6.484 E459.52808
G1 X49.206 Y31.67 E461.00892
G1 X49.206 Y31.104 E461.03245
G1 X24.586 Y6.484 E462.48002
G1 X25.151 Y6.484 E462.50351
G1 X49.206 Y30.539 E463.91785
G1 X49.206 Y29.973 E463.94138
G1 X25.717 Y6.484 E465.32244
G1 X26.283 Y6.484 E465.34597
G1 X49.206 Y29.407 E466.69376
G1 X49.206 Y28.842 E466.71725
G1 X26.848 Y6.484 E468.03181
G1 X27.414 Y6.484 E468.05534
G1 X49.206 Y28.276 E469.33663
G1 X49.206 Y27.71 E469.36016
G1 X27.98 Y6.484 E470.60817
G1 X28.545 Y6.484 E470.63166
G1 X49.206 Y27.145 E471.84645
G1 X49.206 Y26.579 E471.86998
G1 X29.111 Y6.484 E473.05149
G1 X29.677 Y6.484 E473.07502
G1 X49.206 Y26.013 E474.22325
G1 X49.206 Y25.448 E474.24674
G1 X30.242 Y6.484 E475.36175
G1 X30.808 Y6.484 E475.38528
G1 X49.206 Y24.882 E476.46701
G1 X49.206 Y24.316 E476.49054
G1 X31.374 Y6.484 E477.539
G1 X31.94 Y6.484 E477.56253
G1 X49.206 Y23.751 E478.57773
G1 X49.206 Y23.185 E478.60127
G1 X32.505 Y6.484 E479.58322
G1 X33.071 Y6.484 E479.60675
G1 X49.206 Y22.619 E480.55543
G1 X49.206 Y22.053 E480.57896
G1 X33.637 Y6.484 E481.49436
G1 X34.202 Y6.484 E481.51785
G1 X49.206 Y21.488 E482.40002
G1 X49.206 Y20.922 E482.42356
G1 X34.768 Y6.484 E483.27246
G1 X35.348 Y6.498 E483.29658
G1 X49.206 Y20.356 E484.11137
G1 X49.163 Y19.748 E484.13671
G1 X35.937 Y6.522 E484.91435
G1 X36.562 Y6.581 E484.94045
G1 X49.121 Y19.139 E485.67884
G1 X49.023 Y18.475 E485.70675
G1 X37.205 Y6.658 E486.40157
G1 X37.899 Y6.786 E486.43091
G1 X48.902 Y17.789 E487.07785
G1 X48.738 Y17.06 E487.10891
G1 X38.649 Y6.97 E487.70214
G1 X39.45 Y7.206 E487.73685
G1 X48.49 Y16.246 E488.26837
G1 X48.448 Y16.103 E488.27457
G1 X48.153 Y15.343 E488.30846
G1 X40.348 Y7.538 E488.76737
G1 X41.027 Y7.822 E488.79796
G1 X41.378 Y8.003 E488.81438
G1 X47.696 Y14.321 E489.18586
G1 X47.633 Y14.187 E489.19201
G1 X46.984 Y13.043 E489.2467
